( Made using CamBam - http://www.cambam.co.uk )
( gantry_extruder_mount 8/5/2014 11:34:27 PM )
( T0 : 0.0 )
G20 G90 G64 G40
G0 Z0.125
( T0 : 0.0 )
T0 M6
( Drill1 )
G17
M3 S1000
G0 X0.5 Y1.5325
G98
G81 X0.5 Y1.5325 Z-0.07 R0.125 F10.0
G81 Y1.0325 Z-0.07
G81 Y0.5325 Z-0.07
G81 X0.0 Y0.0 Z-0.07
G81 X5.5 Y0.5325 Z-0.07
G81 Y1.0325 Z-0.07
G81 Y1.5325 Z-0.07
G81 X6.0 Y0.0 Z-0.07
G80
( cutouts )
S1000
G0 Z0.125
G0 X4.3125 Y0.5163
G0 Z0.0625
G1 F10.0 Z-0.006
G2 F17.0 X4.2188 Y0.4621 I-0.0625 J0.0
G2 Y0.5704 I0.0313 J0.0541
G2 X4.3125 Y0.5163 I0.0313 J-0.0541
G1 F10.0 Z-0.012
G2 F17.0 X4.2188 Y0.4621 I-0.0625 J0.0
G2 Y0.5704 I0.0313 J0.0541
G2 X4.3125 Y0.5163 I0.0313 J-0.0541
G1 F10.0 Z-0.018
G2 F17.0 X4.2188 Y0.4621 I-0.0625 J0.0
G2 Y0.5704 I0.0313 J0.0541
G2 X4.3125 Y0.5163 I0.0313 J-0.0541
G1 F10.0 Z-0.024
G2 F17.0 X4.2188 Y0.4621 I-0.0625 J0.0
G2 Y0.5704 I0.0313 J0.0541
G2 X4.3125 Y0.5163 I0.0313 J-0.0541
G1 F10.0 Z-0.03
G2 F17.0 X4.2188 Y0.4621 I-0.0625 J0.0
G2 Y0.5704 I0.0313 J0.0541
G2 X4.3125 Y0.5163 I0.0313 J-0.0541
G1 F10.0 Z-0.036
G2 F17.0 X4.2188 Y0.4621 I-0.0625 J0.0
G2 Y0.5704 I0.0313 J0.0541
G2 X4.3125 Y0.5163 I0.0313 J-0.0541
G1 F10.0 Z-0.042
G2 F17.0 X4.2188 Y0.4621 I-0.0625 J0.0
G2 Y0.5704 I0.0313 J0.0541
G2 X4.3125 Y0.5163 I0.0313 J-0.0541
G1 F10.0 Z-0.048
G2 F17.0 X4.2188 Y0.4621 I-0.0625 J0.0
G2 Y0.5704 I0.0313 J0.0541
G2 X4.3125 Y0.5163 I0.0313 J-0.0541
G1 F10.0 Z-0.054
G2 F17.0 X4.2188 Y0.4621 I-0.0625 J0.0
G2 Y0.5704 I0.0313 J0.0541
G2 X4.3125 Y0.5163 I0.0313 J-0.0541
G1 F10.0 Z-0.06
G2 F17.0 X4.2188 Y0.4621 I-0.0625 J0.0
G2 Y0.5704 I0.0313 J0.0541
G2 X4.3125 Y0.5163 I0.0313 J-0.0541
G1 F10.0 Z-0.066
G2 F17.0 X4.2188 Y0.4621 I-0.0625 J0.0
G2 Y0.5704 I0.0313 J0.0541
G2 X4.3125 Y0.5163 I0.0313 J-0.0541
G1 F10.0 Z-0.07
G2 F17.0 X4.2188 Y0.4621 I-0.0625 J0.0
G2 Y0.5704 I0.0313 J0.0541
G2 X4.3125 Y0.5163 I0.0313 J-0.0541
G0 Z0.125
G0 X3.6875
G0 Z0.0625
G1 F10.0 Z-0.006
G2 F17.0 X3.4063 Y0.3539 I-0.1875 J0.0
G2 Y0.6786 I0.0938 J0.1624
G2 X3.6875 Y0.5163 I0.0938 J-0.1624
G1 F10.0 Z-0.012
G2 F17.0 X3.4063 Y0.3539 I-0.1875 J0.0
G2 Y0.6786 I0.0938 J0.1624
G2 X3.6875 Y0.5163 I0.0938 J-0.1624
G1 F10.0 Z-0.018
G2 F17.0 X3.4063 Y0.3539 I-0.1875 J0.0
G2 Y0.6786 I0.0938 J0.1624
G2 X3.6875 Y0.5163 I0.0938 J-0.1624
G1 F10.0 Z-0.024
G2 F17.0 X3.4063 Y0.3539 I-0.1875 J0.0
G2 Y0.6786 I0.0938 J0.1624
G2 X3.6875 Y0.5163 I0.0938 J-0.1624
G1 F10.0 Z-0.03
G2 F17.0 X3.4063 Y0.3539 I-0.1875 J0.0
G2 Y0.6786 I0.0938 J0.1624
G2 X3.6875 Y0.5163 I0.0938 J-0.1624
G1 F10.0 Z-0.036
G2 F17.0 X3.4063 Y0.3539 I-0.1875 J0.0
G2 Y0.6786 I0.0938 J0.1624
G2 X3.6875 Y0.5163 I0.0938 J-0.1624
G1 F10.0 Z-0.042
G2 F17.0 X3.4063 Y0.3539 I-0.1875 J0.0
G2 Y0.6786 I0.0938 J0.1624
G2 X3.6875 Y0.5163 I0.0938 J-0.1624
G1 F10.0 Z-0.048
G2 F17.0 X3.4063 Y0.3539 I-0.1875 J0.0
G2 Y0.6786 I0.0938 J0.1624
G2 X3.6875 Y0.5163 I0.0938 J-0.1624
G1 F10.0 Z-0.054
G2 F17.0 X3.4063 Y0.3539 I-0.1875 J0.0
G2 Y0.6786 I0.0938 J0.1624
G2 X3.6875 Y0.5163 I0.0938 J-0.1624
G1 F10.0 Z-0.06
G2 F17.0 X3.4063 Y0.3539 I-0.1875 J0.0
G2 Y0.6786 I0.0938 J0.1624
G2 X3.6875 Y0.5163 I0.0938 J-0.1624
G1 F10.0 Z-0.066
G2 F17.0 X3.4063 Y0.3539 I-0.1875 J0.0
G2 Y0.6786 I0.0938 J0.1624
G2 X3.6875 Y0.5163 I0.0938 J-0.1624
G1 F10.0 Z-0.07
G2 F17.0 X3.4063 Y0.3539 I-0.1875 J0.0
G2 Y0.6786 I0.0938 J0.1624
G2 X3.6875 Y0.5163 I0.0938 J-0.1624
G0 Z0.125
G0 X2.6875
G0 Z0.0625
G1 F10.0 Z-0.006
G2 F17.0 X2.4063 Y0.3539 I-0.1875 J0.0
G2 Y0.6786 I0.0938 J0.1624
G2 X2.6875 Y0.5163 I0.0938 J-0.1624
G1 F10.0 Z-0.012
G2 F17.0 X2.4063 Y0.3539 I-0.1875 J0.0
G2 Y0.6786 I0.0938 J0.1624
G2 X2.6875 Y0.5163 I0.0938 J-0.1624
G1 F10.0 Z-0.018
G2 F17.0 X2.4063 Y0.3539 I-0.1875 J0.0
G2 Y0.6786 I0.0938 J0.1624
G2 X2.6875 Y0.5163 I0.0938 J-0.1624
G1 F10.0 Z-0.024
G2 F17.0 X2.4063 Y0.3539 I-0.1875 J0.0
G2 Y0.6786 I0.0938 J0.1624
G2 X2.6875 Y0.5163 I0.0938 J-0.1624
G1 F10.0 Z-0.03
G2 F17.0 X2.4063 Y0.3539 I-0.1875 J0.0
G2 Y0.6786 I0.0938 J0.1624
G2 X2.6875 Y0.5163 I0.0938 J-0.1624
G1 F10.0 Z-0.036
G2 F17.0 X2.4063 Y0.3539 I-0.1875 J0.0
G2 Y0.6786 I0.0938 J0.1624
G2 X2.6875 Y0.5163 I0.0938 J-0.1624
G1 F10.0 Z-0.042
G2 F17.0 X2.4063 Y0.3539 I-0.1875 J0.0
G2 Y0.6786 I0.0938 J0.1624
G2 X2.6875 Y0.5163 I0.0938 J-0.1624
G1 F10.0 Z-0.048
G2 F17.0 X2.4063 Y0.3539 I-0.1875 J0.0
G2 Y0.6786 I0.0938 J0.1624
G2 X2.6875 Y0.5163 I0.0938 J-0.1624
G1 F10.0 Z-0.054
G2 F17.0 X2.4063 Y0.3539 I-0.1875 J0.0
G2 Y0.6786 I0.0938 J0.1624
G2 X2.6875 Y0.5163 I0.0938 J-0.1624
G1 F10.0 Z-0.06
G2 F17.0 X2.4063 Y0.3539 I-0.1875 J0.0
G2 Y0.6786 I0.0938 J0.1624
G2 X2.6875 Y0.5163 I0.0938 J-0.1624
G1 F10.0 Z-0.066
G2 F17.0 X2.4063 Y0.3539 I-0.1875 J0.0
G2 Y0.6786 I0.0938 J0.1624
G2 X2.6875 Y0.5163 I0.0938 J-0.1624
G1 F10.0 Z-0.07
G2 F17.0 X2.4063 Y0.3539 I-0.1875 J0.0
G2 Y0.6786 I0.0938 J0.1624
G2 X2.6875 Y0.5163 I0.0938 J-0.1624
G0 Z0.125
G0 X1.8125
G0 Z0.0625
G1 F10.0 Z-0.006
G2 F17.0 X1.7188 Y0.4621 I-0.0625 J0.0
G2 Y0.5704 I0.0313 J0.0541
G2 X1.8125 Y0.5163 I0.0313 J-0.0541
G1 F10.0 Z-0.012
G2 F17.0 X1.7188 Y0.4621 I-0.0625 J0.0
G2 Y0.5704 I0.0313 J0.0541
G2 X1.8125 Y0.5163 I0.0313 J-0.0541
G1 F10.0 Z-0.018
G2 F17.0 X1.7188 Y0.4621 I-0.0625 J0.0
G2 Y0.5704 I0.0313 J0.0541
G2 X1.8125 Y0.5163 I0.0313 J-0.0541
G1 F10.0 Z-0.024
G2 F17.0 X1.7188 Y0.4621 I-0.0625 J0.0
G2 Y0.5704 I0.0313 J0.0541
G2 X1.8125 Y0.5163 I0.0313 J-0.0541
G1 F10.0 Z-0.03
G2 F17.0 X1.7188 Y0.4621 I-0.0625 J0.0
G2 Y0.5704 I0.0313 J0.0541
G2 X1.8125 Y0.5163 I0.0313 J-0.0541
G1 F10.0 Z-0.036
G2 F17.0 X1.7188 Y0.4621 I-0.0625 J0.0
G2 Y0.5704 I0.0313 J0.0541
G2 X1.8125 Y0.5163 I0.0313 J-0.0541
G1 F10.0 Z-0.042
G2 F17.0 X1.7188 Y0.4621 I-0.0625 J0.0
G2 Y0.5704 I0.0313 J0.0541
G2 X1.8125 Y0.5163 I0.0313 J-0.0541
G1 F10.0 Z-0.048
G2 F17.0 X1.7188 Y0.4621 I-0.0625 J0.0
G2 Y0.5704 I0.0313 J0.0541
G2 X1.8125 Y0.5163 I0.0313 J-0.0541
G1 F10.0 Z-0.054
G2 F17.0 X1.7188 Y0.4621 I-0.0625 J0.0
G2 Y0.5704 I0.0313 J0.0541
G2 X1.8125 Y0.5163 I0.0313 J-0.0541
G1 F10.0 Z-0.06
G2 F17.0 X1.7188 Y0.4621 I-0.0625 J0.0
G2 Y0.5704 I0.0313 J0.0541
G2 X1.8125 Y0.5163 I0.0313 J-0.0541
G1 F10.0 Z-0.066
G2 F17.0 X1.7188 Y0.4621 I-0.0625 J0.0
G2 Y0.5704 I0.0313 J0.0541
G2 X1.8125 Y0.5163 I0.0313 J-0.0541
G1 F10.0 Z-0.07
G2 F17.0 X1.7188 Y0.4621 I-0.0625 J0.0
G2 Y0.5704 I0.0313 J0.0541
G2 X1.8125 Y0.5163 I0.0313 J-0.0541
G0 Z0.125
G0 X2.9579 Y-0.5469
G0 Z0.0625
G1 F10.0 Z-0.006
G2 F17.0 X2.9713 Y-0.5362 I0.0421 J-0.0391
G2 X3.0575 Y-0.586 I0.0288 J-0.0498
G2 X2.9713 Y-0.6358 I-0.0575 J0.0
G2 X2.9579 Y-0.5469 I0.0288 J0.0498
G1 F10.0 Z-0.012
G2 F17.0 X2.9713 Y-0.5362 I0.0421 J-0.0391
G2 X3.0575 Y-0.586 I0.0288 J-0.0498
G2 X2.9713 Y-0.6358 I-0.0575 J0.0
G2 X2.9579 Y-0.5469 I0.0288 J0.0498
G1 F10.0 Z-0.018
G2 F17.0 X2.9713 Y-0.5362 I0.0421 J-0.0391
G2 X3.0575 Y-0.586 I0.0288 J-0.0498
G2 X2.9713 Y-0.6358 I-0.0575 J0.0
G2 X2.9579 Y-0.5469 I0.0288 J0.0498
G1 F10.0 Z-0.024
G2 F17.0 X2.9713 Y-0.5362 I0.0421 J-0.0391
G2 X3.0575 Y-0.586 I0.0288 J-0.0498
G2 X2.9713 Y-0.6358 I-0.0575 J0.0
G2 X2.9579 Y-0.5469 I0.0288 J0.0498
G1 F10.0 Z-0.03
G2 F17.0 X2.9713 Y-0.5362 I0.0421 J-0.0391
G2 X3.0575 Y-0.586 I0.0288 J-0.0498
G2 X2.9713 Y-0.6358 I-0.0575 J0.0
G2 X2.9579 Y-0.5469 I0.0288 J0.0498
G1 F10.0 Z-0.036
G2 F17.0 X2.9713 Y-0.5362 I0.0421 J-0.0391
G2 X3.0575 Y-0.586 I0.0288 J-0.0498
G2 X2.9713 Y-0.6358 I-0.0575 J0.0
G2 X2.9579 Y-0.5469 I0.0288 J0.0498
G1 F10.0 Z-0.042
G2 F17.0 X2.9713 Y-0.5362 I0.0421 J-0.0391
G2 X3.0575 Y-0.586 I0.0288 J-0.0498
G2 X2.9713 Y-0.6358 I-0.0575 J0.0
G2 X2.9579 Y-0.5469 I0.0288 J0.0498
G1 F10.0 Z-0.048
G2 F17.0 X2.9713 Y-0.5362 I0.0421 J-0.0391
G2 X3.0575 Y-0.586 I0.0288 J-0.0498
G2 X2.9713 Y-0.6358 I-0.0575 J0.0
G2 X2.9579 Y-0.5469 I0.0288 J0.0498
G1 F10.0 Z-0.054
G2 F17.0 X2.9713 Y-0.5362 I0.0421 J-0.0391
G2 X3.0575 Y-0.586 I0.0288 J-0.0498
G2 X2.9713 Y-0.6358 I-0.0575 J0.0
G2 X2.9579 Y-0.5469 I0.0288 J0.0498
G1 F10.0 Z-0.06
G2 F17.0 X2.9713 Y-0.5362 I0.0421 J-0.0391
G2 X3.0575 Y-0.586 I0.0288 J-0.0498
G2 X2.9713 Y-0.6358 I-0.0575 J0.0
G2 X2.9579 Y-0.5469 I0.0288 J0.0498
G1 F10.0 Z-0.066
G2 F17.0 X2.9713 Y-0.5362 I0.0421 J-0.0391
G2 X3.0575 Y-0.586 I0.0288 J-0.0498
G2 X2.9713 Y-0.6358 I-0.0575 J0.0
G2 X2.9579 Y-0.5469 I0.0288 J0.0498
G1 F10.0 Z-0.07
G2 F17.0 X2.9713 Y-0.5362 I0.0421 J-0.0391
G2 X3.0575 Y-0.586 I0.0288 J-0.0498
G2 X2.9713 Y-0.6358 I-0.0575 J0.0
G2 X2.9579 Y-0.5469 I0.0288 J0.0498
G0 Z0.125
G0 X0.5625 Y-0.5012
G0 Z0.0625
G1 F10.0 Z-0.006
G2 F17.0 X0.4688 Y-0.5541 I-0.0625 J0.0012
G2 Y-0.4459 I0.0313 J0.0541
G2 X0.5625 Y-0.5 I0.0313 J-0.0541
G2 Y-0.5012 I-0.0625 J0.0
G1 F10.0 Z-0.012
G2 F17.0 X0.4688 Y-0.5541 I-0.0625 J0.0012
G2 Y-0.4459 I0.0313 J0.0541
G2 X0.5625 Y-0.5 I0.0313 J-0.0541
G2 Y-0.5012 I-0.0625 J0.0
G1 F10.0 Z-0.018
G2 F17.0 X0.4688 Y-0.5541 I-0.0625 J0.0012
G2 Y-0.4459 I0.0313 J0.0541
G2 X0.5625 Y-0.5 I0.0313 J-0.0541
G2 Y-0.5012 I-0.0625 J0.0
G1 F10.0 Z-0.024
G2 F17.0 X0.4688 Y-0.5541 I-0.0625 J0.0012
G2 Y-0.4459 I0.0313 J0.0541
G2 X0.5625 Y-0.5 I0.0313 J-0.0541
G2 Y-0.5012 I-0.0625 J0.0
G1 F10.0 Z-0.03
G2 F17.0 X0.4688 Y-0.5541 I-0.0625 J0.0012
G2 Y-0.4459 I0.0313 J0.0541
G2 X0.5625 Y-0.5 I0.0313 J-0.0541
G2 Y-0.5012 I-0.0625 J0.0
G1 F10.0 Z-0.036
G2 F17.0 X0.4688 Y-0.5541 I-0.0625 J0.0012
G2 Y-0.4459 I0.0313 J0.0541
G2 X0.5625 Y-0.5 I0.0313 J-0.0541
G2 Y-0.5012 I-0.0625 J0.0
G1 F10.0 Z-0.042
G2 F17.0 X0.4688 Y-0.5541 I-0.0625 J0.0012
G2 Y-0.4459 I0.0313 J0.0541
G2 X0.5625 Y-0.5 I0.0313 J-0.0541
G2 Y-0.5012 I-0.0625 J0.0
G1 F10.0 Z-0.048
G2 F17.0 X0.4688 Y-0.5541 I-0.0625 J0.0012
G2 Y-0.4459 I0.0313 J0.0541
G2 X0.5625 Y-0.5 I0.0313 J-0.0541
G2 Y-0.5012 I-0.0625 J0.0
G1 F10.0 Z-0.054
G2 F17.0 X0.4688 Y-0.5541 I-0.0625 J0.0012
G2 Y-0.4459 I0.0313 J0.0541
G2 X0.5625 Y-0.5 I0.0313 J-0.0541
G2 Y-0.5012 I-0.0625 J0.0
G1 F10.0 Z-0.06
G2 F17.0 X0.4688 Y-0.5541 I-0.0625 J0.0012
G2 Y-0.4459 I0.0313 J0.0541
G2 X0.5625 Y-0.5 I0.0313 J-0.0541
G2 Y-0.5012 I-0.0625 J0.0
G1 F10.0 Z-0.066
G2 F17.0 X0.4688 Y-0.5541 I-0.0625 J0.0012
G2 Y-0.4459 I0.0313 J0.0541
G2 X0.5625 Y-0.5 I0.0313 J-0.0541
G2 Y-0.5012 I-0.0625 J0.0
G1 F10.0 Z-0.07
G2 F17.0 X0.4688 Y-0.5541 I-0.0625 J0.0012
G2 Y-0.4459 I0.0313 J0.0541
G2 X0.5625 Y-0.5 I0.0313 J-0.0541
G2 Y-0.5012 I-0.0625 J0.0
G0 Z0.125
G0 X5.4375 Y-0.5
G0 Z0.0625
G1 F10.0 Z-0.006
G2 F17.0 X5.4688 Y-0.4459 I0.0625 J0.0
G2 X5.5625 Y-0.5 I0.0313 J-0.0541
G2 X5.4688 Y-0.5541 I-0.0625 J0.0
G2 X5.4375 Y-0.5 I0.0313 J0.0541
G1 F10.0 Z-0.012
G2 F17.0 X5.4688 Y-0.4459 I0.0625 J0.0
G2 X5.5625 Y-0.5 I0.0313 J-0.0541
G2 X5.4688 Y-0.5541 I-0.0625 J0.0
G2 X5.4375 Y-0.5 I0.0313 J0.0541
G1 F10.0 Z-0.018
G2 F17.0 X5.4688 Y-0.4459 I0.0625 J0.0
G2 X5.5625 Y-0.5 I0.0313 J-0.0541
G2 X5.4688 Y-0.5541 I-0.0625 J0.0
G2 X5.4375 Y-0.5 I0.0313 J0.0541
G1 F10.0 Z-0.024
G2 F17.0 X5.4688 Y-0.4459 I0.0625 J0.0
G2 X5.5625 Y-0.5 I0.0313 J-0.0541
G2 X5.4688 Y-0.5541 I-0.0625 J0.0
G2 X5.4375 Y-0.5 I0.0313 J0.0541
G1 F10.0 Z-0.03
G2 F17.0 X5.4688 Y-0.4459 I0.0625 J0.0
G2 X5.5625 Y-0.5 I0.0313 J-0.0541
G2 X5.4688 Y-0.5541 I-0.0625 J0.0
G2 X5.4375 Y-0.5 I0.0313 J0.0541
G1 F10.0 Z-0.036
G2 F17.0 X5.4688 Y-0.4459 I0.0625 J0.0
G2 X5.5625 Y-0.5 I0.0313 J-0.0541
G2 X5.4688 Y-0.5541 I-0.0625 J0.0
G2 X5.4375 Y-0.5 I0.0313 J0.0541
G1 F10.0 Z-0.042
G2 F17.0 X5.4688 Y-0.4459 I0.0625 J0.0
G2 X5.5625 Y-0.5 I0.0313 J-0.0541
G2 X5.4688 Y-0.5541 I-0.0625 J0.0
G2 X5.4375 Y-0.5 I0.0313 J0.0541
G1 F10.0 Z-0.048
G2 F17.0 X5.4688 Y-0.4459 I0.0625 J0.0
G2 X5.5625 Y-0.5 I0.0313 J-0.0541
G2 X5.4688 Y-0.5541 I-0.0625 J0.0
G2 X5.4375 Y-0.5 I0.0313 J0.0541
G1 F10.0 Z-0.054
G2 F17.0 X5.4688 Y-0.4459 I0.0625 J0.0
G2 X5.5625 Y-0.5 I0.0313 J-0.0541
G2 X5.4688 Y-0.5541 I-0.0625 J0.0
G2 X5.4375 Y-0.5 I0.0313 J0.0541
G1 F10.0 Z-0.06
G2 F17.0 X5.4688 Y-0.4459 I0.0625 J0.0
G2 X5.5625 Y-0.5 I0.0313 J-0.0541
G2 X5.4688 Y-0.5541 I-0.0625 J0.0
G2 X5.4375 Y-0.5 I0.0313 J0.0541
G1 F10.0 Z-0.066
G2 F17.0 X5.4688 Y-0.4459 I0.0625 J0.0
G2 X5.5625 Y-0.5 I0.0313 J-0.0541
G2 X5.4688 Y-0.5541 I-0.0625 J0.0
G2 X5.4375 Y-0.5 I0.0313 J0.0541
G1 F10.0 Z-0.07
G2 F17.0 X5.4688 Y-0.4459 I0.0625 J0.0
G2 X5.5625 Y-0.5 I0.0313 J-0.0541
G2 X5.4688 Y-0.5541 I-0.0625 J0.0
G2 X5.4375 Y-0.5 I0.0313 J0.0541
( cutout )
S1000
G0 Z0.125
G0 X4.5 Y-1.7225
G0 Z0.0625
G1 F10.0 Z-0.006
G3 F17.0 X5.0625 Y-1.16 I0.0 J0.5625
G1 Y-1.07
G2 X5.07 Y-1.0625 I0.0075 J0.0
G1 X6.0
G3 X6.0625 Y-1.0 I0.0 J0.0625
G1 Y2.0325
G3 X6.0 Y2.095 I-0.0625 J0.0
G1 X5.0
G3 X4.9375 Y2.0325 I0.0 J-0.0625
G2 X4.0 Y1.095 I-0.9375 J0.0
G1 X2.0
G2 X1.0625 Y2.0325 I0.0 J0.9375
G3 X1.0 Y2.095 I-0.0625 J0.0
G1 X0.0
G3 X-0.0625 Y2.0325 I0.0 J-0.0625
G1 Y-1.0
G3 X0.0 Y-1.0625 I0.0625 J0.0
G1 X0.93
G2 X0.9375 Y-1.07 I0.0 J-0.0075
G1 Y-1.16
G3 X1.5 Y-1.7225 I0.5625 J0.0
G1 X4.5
G1 F10.0 Z-0.012
G3 F17.0 X5.0625 Y-1.16 I0.0 J0.5625
G1 Y-1.07
G2 X5.07 Y-1.0625 I0.0075 J0.0
G1 X6.0
G3 X6.0625 Y-1.0 I0.0 J0.0625
G1 Y2.0325
G3 X6.0 Y2.095 I-0.0625 J0.0
G1 X5.0
G3 X4.9375 Y2.0325 I0.0 J-0.0625
G2 X4.0 Y1.095 I-0.9375 J0.0
G1 X2.0
G2 X1.0625 Y2.0325 I0.0 J0.9375
G3 X1.0 Y2.095 I-0.0625 J0.0
G1 X0.0
G3 X-0.0625 Y2.0325 I0.0 J-0.0625
G1 Y-1.0
G3 X0.0 Y-1.0625 I0.0625 J0.0
G1 X0.93
G2 X0.9375 Y-1.07 I0.0 J-0.0075
G1 Y-1.16
G3 X1.5 Y-1.7225 I0.5625 J0.0
G1 X4.5
G1 F10.0 Z-0.018
G3 F17.0 X5.0625 Y-1.16 I0.0 J0.5625
G1 Y-1.07
G2 X5.07 Y-1.0625 I0.0075 J0.0
G1 X6.0
G3 X6.0625 Y-1.0 I0.0 J0.0625
G1 Y2.0325
G3 X6.0 Y2.095 I-0.0625 J0.0
G1 X5.0
G3 X4.9375 Y2.0325 I0.0 J-0.0625
G2 X4.0 Y1.095 I-0.9375 J0.0
G1 X2.0
G2 X1.0625 Y2.0325 I0.0 J0.9375
G3 X1.0 Y2.095 I-0.0625 J0.0
G1 X0.0
G3 X-0.0625 Y2.0325 I0.0 J-0.0625
G1 Y-1.0
G3 X0.0 Y-1.0625 I0.0625 J0.0
G1 X0.93
G2 X0.9375 Y-1.07 I0.0 J-0.0075
G1 Y-1.16
G3 X1.5 Y-1.7225 I0.5625 J0.0
G1 X4.5
G1 F10.0 Z-0.024
G3 F17.0 X5.0625 Y-1.16 I0.0 J0.5625
G1 Y-1.07
G2 X5.07 Y-1.0625 I0.0075 J0.0
G1 X6.0
G3 X6.0625 Y-1.0 I0.0 J0.0625
G1 Y2.0325
G3 X6.0 Y2.095 I-0.0625 J0.0
G1 X5.0
G3 X4.9375 Y2.0325 I0.0 J-0.0625
G2 X4.0 Y1.095 I-0.9375 J0.0
G1 X2.0
G2 X1.0625 Y2.0325 I0.0 J0.9375
G3 X1.0 Y2.095 I-0.0625 J0.0
G1 X0.0
G3 X-0.0625 Y2.0325 I0.0 J-0.0625
G1 Y-1.0
G3 X0.0 Y-1.0625 I0.0625 J0.0
G1 X0.93
G2 X0.9375 Y-1.07 I0.0 J-0.0075
G1 Y-1.16
G3 X1.5 Y-1.7225 I0.5625 J0.0
G1 X4.5
G1 F10.0 Z-0.03
G3 F17.0 X5.0625 Y-1.16 I0.0 J0.5625
G1 Y-1.07
G2 X5.07 Y-1.0625 I0.0075 J0.0
G1 X6.0
G3 X6.0625 Y-1.0 I0.0 J0.0625
G1 Y2.0325
G3 X6.0 Y2.095 I-0.0625 J0.0
G1 X5.0
G3 X4.9375 Y2.0325 I0.0 J-0.0625
G2 X4.0 Y1.095 I-0.9375 J0.0
G1 X2.0
G2 X1.0625 Y2.0325 I0.0 J0.9375
G3 X1.0 Y2.095 I-0.0625 J0.0
G1 X0.0
G3 X-0.0625 Y2.0325 I0.0 J-0.0625
G1 Y-1.0
G3 X0.0 Y-1.0625 I0.0625 J0.0
G1 X0.93
G2 X0.9375 Y-1.07 I0.0 J-0.0075
G1 Y-1.16
G3 X1.5 Y-1.7225 I0.5625 J0.0
G1 X4.5
G1 F10.0 Z-0.036
G3 F17.0 X5.0625 Y-1.16 I0.0 J0.5625
G1 Y-1.07
G2 X5.07 Y-1.0625 I0.0075 J0.0
G1 X6.0
G3 X6.0625 Y-1.0 I0.0 J0.0625
G1 Y2.0325
G3 X6.0 Y2.095 I-0.0625 J0.0
G1 X5.0
G3 X4.9375 Y2.0325 I0.0 J-0.0625
G2 X4.0 Y1.095 I-0.9375 J0.0
G1 X2.0
G2 X1.0625 Y2.0325 I0.0 J0.9375
G3 X1.0 Y2.095 I-0.0625 J0.0
G1 X0.0
G3 X-0.0625 Y2.0325 I0.0 J-0.0625
G1 Y-1.0
G3 X0.0 Y-1.0625 I0.0625 J0.0
G1 X0.93
G2 X0.9375 Y-1.07 I0.0 J-0.0075
G1 Y-1.16
G3 X1.5 Y-1.7225 I0.5625 J0.0
G1 X4.5
G1 F10.0 Z-0.042
G3 F17.0 X5.0625 Y-1.16 I0.0 J0.5625
G1 Y-1.07
G2 X5.07 Y-1.0625 I0.0075 J0.0
G1 X6.0
G3 X6.0625 Y-1.0 I0.0 J0.0625
G1 Y2.0325
G3 X6.0 Y2.095 I-0.0625 J0.0
G1 X5.0
G3 X4.9375 Y2.0325 I0.0 J-0.0625
G2 X4.0 Y1.095 I-0.9375 J0.0
G1 X2.0
G2 X1.0625 Y2.0325 I0.0 J0.9375
G3 X1.0 Y2.095 I-0.0625 J0.0
G1 X0.0
G3 X-0.0625 Y2.0325 I0.0 J-0.0625
G1 Y-1.0
G3 X0.0 Y-1.0625 I0.0625 J0.0
G1 X0.93
G2 X0.9375 Y-1.07 I0.0 J-0.0075
G1 Y-1.16
G3 X1.5 Y-1.7225 I0.5625 J0.0
G1 X4.5
G1 F10.0 Z-0.048
G3 F17.0 X5.0625 Y-1.16 I0.0 J0.5625
G1 Y-1.07
G2 X5.07 Y-1.0625 I0.0075 J0.0
G1 X6.0
G3 X6.0625 Y-1.0 I0.0 J0.0625
G1 Y2.0325
G3 X6.0 Y2.095 I-0.0625 J0.0
G1 X5.0
G3 X4.9375 Y2.0325 I0.0 J-0.0625
G2 X4.0 Y1.095 I-0.9375 J0.0
G1 X2.0
G2 X1.0625 Y2.0325 I0.0 J0.9375
G3 X1.0 Y2.095 I-0.0625 J0.0
G1 X0.0
G3 X-0.0625 Y2.0325 I0.0 J-0.0625
G1 Y-1.0
G3 X0.0 Y-1.0625 I0.0625 J0.0
G1 X0.93
G2 X0.9375 Y-1.07 I0.0 J-0.0075
G1 Y-1.16
G3 X1.5 Y-1.7225 I0.5625 J0.0
G1 X4.5
G1 F10.0 Z-0.054
G3 F17.0 X5.0625 Y-1.16 I0.0 J0.5625
G1 Y-1.07
G2 X5.07 Y-1.0625 I0.0075 J0.0
G1 X6.0
G3 X6.0625 Y-1.0 I0.0 J0.0625
G1 Y2.0325
G3 X6.0 Y2.095 I-0.0625 J0.0
G1 X5.0
G3 X4.9375 Y2.0325 I0.0 J-0.0625
G2 X4.0 Y1.095 I-0.9375 J0.0
G1 X2.0
G2 X1.0625 Y2.0325 I0.0 J0.9375
G3 X1.0 Y2.095 I-0.0625 J0.0
G1 X0.0
G3 X-0.0625 Y2.0325 I0.0 J-0.0625
G1 Y-1.0
G3 X0.0 Y-1.0625 I0.0625 J0.0
G1 X0.93
G2 X0.9375 Y-1.07 I0.0 J-0.0075
G1 Y-1.16
G3 X1.5 Y-1.7225 I0.5625 J0.0
G1 X4.5
G1 F10.0 Z-0.06
G3 F17.0 X5.0625 Y-1.16 I0.0 J0.5625
G1 Y-1.07
G2 X5.07 Y-1.0625 I0.0075 J0.0
G1 X6.0
G3 X6.0625 Y-1.0 I0.0 J0.0625
G1 Y2.0325
G3 X6.0 Y2.095 I-0.0625 J0.0
G1 X5.0
G3 X4.9375 Y2.0325 I0.0 J-0.0625
G2 X4.0 Y1.095 I-0.9375 J0.0
G1 X2.0
G2 X1.0625 Y2.0325 I0.0 J0.9375
G3 X1.0 Y2.095 I-0.0625 J0.0
G1 X0.0
G3 X-0.0625 Y2.0325 I0.0 J-0.0625
G1 Y-1.0
G3 X0.0 Y-1.0625 I0.0625 J0.0
G1 X0.93
G2 X0.9375 Y-1.07 I0.0 J-0.0075
G1 Y-1.16
G3 X1.5 Y-1.7225 I0.5625 J0.0
G1 X4.5
G1 F10.0 Z-0.066
G3 F17.0 X5.0625 Y-1.16 I0.0 J0.5625
G1 Y-1.07
G2 X5.07 Y-1.0625 I0.0075 J0.0
G1 X6.0
G3 X6.0625 Y-1.0 I0.0 J0.0625
G1 Y2.0325
G3 X6.0 Y2.095 I-0.0625 J0.0
G1 X5.0
G3 X4.9375 Y2.0325 I0.0 J-0.0625
G2 X4.0 Y1.095 I-0.9375 J0.0
G1 X2.0
G2 X1.0625 Y2.0325 I0.0 J0.9375
G3 X1.0 Y2.095 I-0.0625 J0.0
G1 X0.0
G3 X-0.0625 Y2.0325 I0.0 J-0.0625
G1 Y-1.0
G3 X0.0 Y-1.0625 I0.0625 J0.0
G1 X0.93
G2 X0.9375 Y-1.07 I0.0 J-0.0075
G1 Y-1.16
G3 X1.5 Y-1.7225 I0.5625 J0.0
G1 X4.5
G1 F10.0 Z-0.07
G3 F17.0 X5.0625 Y-1.16 I0.0 J0.5625
G1 Y-1.07
G2 X5.07 Y-1.0625 I0.0075 J0.0
G1 X6.0
G3 X6.0625 Y-1.0 I0.0 J0.0625
G1 Y2.0325
G3 X6.0 Y2.095 I-0.0625 J0.0
G1 X5.0
G3 X4.9375 Y2.0325 I0.0 J-0.0625
G2 X4.0 Y1.095 I-0.9375 J0.0
G1 X2.0
G2 X1.0625 Y2.0325 I0.0 J0.9375
G3 X1.0 Y2.095 I-0.0625 J0.0
G1 X0.0
G3 X-0.0625 Y2.0325 I0.0 J-0.0625
G1 Y-1.0
G3 X0.0 Y-1.0625 I0.0625 J0.0
G1 X0.93
G2 X0.9375 Y-1.07 I0.0 J-0.0075
G1 Y-1.16
G3 X1.5 Y-1.7225 I0.5625 J0.0
G1 X4.5
G0 Z0.125
M5
M30
