; generated by Slic3r 1.1.7 on 2014-08-27 at 17:12:28

; perimeters extrusion width = 0.40mm
; infill extrusion width = 0.42mm
; solid infill extrusion width = 0.42mm
; top infill extrusion width = 0.42mm

G21 ; set units to millimeters
M107
M104 S185 ; set temperature
G92 X0 Y0 Z0
G1 Z5 F5000 ; lift nozzle

M109 S185 ; wait for temperature to be reached
G90 ; use absolute coordinates
G92 E0
M82 ; use absolute distances for extrusion
G1 F1800.000 E-1.00000
G92 E0
G1 Z0.350 F3600.000
G1 X107.354 Y127.029 F3600.000
G1 E1.00000 F1800.000
G1 X108.558 Y126.011 E1.14577 F720.000
G1 X110.711 Y125.216 E1.35807
G1 X111.900 Y125.108 E1.46849
G1 X188.100 Y125.108 E8.51630
G1 X190.361 Y125.505 E8.72860
G1 X192.351 Y126.649 E8.94090 F720.000
G1 X193.833 Y128.402 E9.15319
G1 X194.628 Y130.555 E9.36549
G1 X194.736 Y131.744 E9.47591
G1 X194.736 Y168.256 E12.85299
G1 X194.339 Y170.517 E13.06529
G1 X193.195 Y172.507 E13.27758
G1 X191.442 Y173.989 E13.48988
G1 X189.289 Y174.784 E13.70218
G1 X188.100 Y174.892 E13.81260
G1 X111.900 Y174.892 E20.86041
G1 X109.639 Y174.495 E21.07271
G1 X107.649 Y173.351 E21.28501
G1 X106.167 Y171.598 E21.49730
G1 X105.372 Y169.445 E21.70960
G1 X105.264 Y168.256 E21.82002
G1 X105.264 Y131.744 E25.19710
G1 X105.661 Y129.483 E25.40940
G1 X106.805 Y127.493 E25.62169
G1 X107.308 Y127.067 E25.68267
G1 F1800.000 E24.68267
G92 E0
G1 X134.761 Y155.550 F3600.000
G1 E1.00000 F1800.000
G1 X133.811 Y156.429 E1.11967 F540.000
G1 X132.666 Y157.031 E1.23935
G1 X131.404 Y157.317 E1.35903
G1 X130.111 Y157.266 E1.47870
G1 X128.875 Y156.883 E1.59838
G1 X127.781 Y156.192 E1.71805
G1 X126.903 Y155.242 E1.83772
G1 X126.300 Y154.097 E1.95740
G1 X126.014 Y152.835 E2.07708
G1 X126.065 Y151.543 E2.19675
G1 X126.448 Y150.307 E2.31643
G1 X127.139 Y149.212 E2.43610
G1 X128.089 Y148.334 E2.55578
G1 X129.234 Y147.731 E2.67545
G1 X130.496 Y147.446 E2.79513
G1 X131.545 Y147.487 E2.89225
G1 X131.789 Y147.496 E2.91480 F540.000
G1 X133.025 Y147.880 E3.03448
G1 X134.119 Y148.570 E3.15415
G1 X134.997 Y149.520 E3.27383
G1 X135.600 Y150.665 E3.39350
G1 X135.886 Y151.927 E3.51318
G1 X135.835 Y153.220 E3.63285
G1 X135.451 Y154.456 E3.75253
G1 X134.793 Y155.499 E3.86665
G1 X134.268 Y155.140 F3600.000
G1 X133.441 Y155.905 E3.97085 F378.000
G1 X132.444 Y156.430 E4.07505
G1 X131.345 Y156.679 E4.17924
G1 X130.220 Y156.634 E4.28344
G1 X129.144 Y156.300 E4.38763
G1 X128.191 Y155.699 E4.49183
G1 X127.426 Y154.872 E4.59602
G1 X126.901 Y153.875 E4.70022
G1 X126.653 Y152.777 E4.80442
G1 X126.697 Y151.651 E4.90861
G1 X127.031 Y150.575 E5.01281
G1 X127.632 Y149.622 E5.11700
G1 X128.459 Y148.857 E5.22120
G1 X129.456 Y148.333 E5.32539
G1 X130.398 Y148.119 E5.41478
G1 X130.555 Y148.084 E5.42959 F378.000
G1 X131.680 Y148.128 E5.53379
G1 X132.756 Y148.462 E5.63798
G1 X133.709 Y149.063 E5.74218
G1 X134.474 Y149.890 E5.84637
G1 X134.998 Y150.887 E5.95057
G1 X135.247 Y151.986 E6.05477
G1 X135.203 Y153.112 E6.15896
G1 X134.869 Y154.187 E6.26316
G1 X134.300 Y155.090 E6.36180
G1 F1800.000 E5.36180
G92 E0
G1 X130.342 Y147.970 F3600.000
G1 X164.093 Y152.381 F3600.000
G1 E1.00000 F1800.000
G1 X164.262 Y151.098 E1.11968 F540.000
G1 X164.758 Y149.903 E1.23935
G1 X165.545 Y148.876 E1.35903
G1 X166.572 Y148.089 E1.47870
G1 X167.767 Y147.594 E1.59838
G1 X169.050 Y147.425 E1.71805
G1 X170.091 Y147.562 E1.81518
G1 X170.333 Y147.594 E1.83773 F540.000
G1 X171.528 Y148.089 E1.95740
G1 X172.555 Y148.876 E2.07708
G1 X173.342 Y149.903 E2.19676
G1 X173.838 Y151.098 E2.31643
G1 X174.007 Y152.381 E2.43610
G1 X173.838 Y153.664 E2.55578
G1 X173.342 Y154.860 E2.67545
G1 X172.555 Y155.886 E2.79513
G1 X171.528 Y156.674 E2.91481
G1 X170.333 Y157.169 E3.03448
G1 X169.050 Y157.338 E3.15416
G1 X167.767 Y157.169 E3.27383
G1 X166.572 Y156.674 E3.39350
G1 X165.545 Y155.886 E3.51318
G1 X164.758 Y154.860 E3.63285
G1 X164.262 Y153.664 E3.75253
G1 X164.101 Y152.441 E3.86665
G1 X164.735 Y152.381 F3600.000
G1 X164.882 Y151.264 E3.97085 F378.000
G1 X165.313 Y150.224 E4.07505
G1 X165.999 Y149.330 E4.17924
G1 X166.892 Y148.644 E4.28344
G1 X167.933 Y148.213 E4.38763
G1 X168.891 Y148.087 E4.47702
G1 X169.050 Y148.066 E4.49183 F378.000
G1 X170.167 Y148.213 E4.59602
G1 X171.208 Y148.644 E4.70022
G1 X172.101 Y149.330 E4.80442
G1 X172.787 Y150.224 E4.90861
G1 X173.218 Y151.264 E5.01281
G1 X173.365 Y152.381 E5.11700
G1 X173.345 Y152.540 E5.13181
G1 X173.218 Y153.498 E5.22120
G1 X172.787 Y154.539 E5.32540
G1 X172.101 Y155.433 E5.42959
G1 X171.208 Y156.119 E5.53379
G1 X170.167 Y156.550 E5.63798
G1 X169.050 Y156.697 E5.74218
G1 X167.933 Y156.550 E5.84637
G1 X166.892 Y156.119 E5.95057
G1 X165.999 Y155.433 E6.05477
G1 X165.313 Y154.539 E6.15896
G1 X164.882 Y153.498 E6.26316
G1 X164.742 Y152.441 E6.36180
G1 F1800.000 E5.36180
G92 E0
G1 X168.911 Y147.928 F3600.000
G1 X187.114 Y167.271 F3600.000
G1 E1.00000 F1800.000
G1 X112.886 Y167.271 E7.86549 F540.000
G1 X112.886 Y132.729 E11.06024
G1 X187.114 Y132.729 E17.92573
G1 X187.114 Y167.211 E21.11494
G1 X187.750 Y167.906 F3600.000
G1 X112.250 Y167.906 E28.09801 F378.000
G1 X112.250 Y132.094 E31.41034
G1 X187.750 Y132.094 E38.39341
G1 X187.750 Y167.846 E41.70019
G1 X187.404 Y167.706 F3600.000
G1 X186.634 Y133.170 F3600.000
G1 X186.674 Y133.210 E41.70542 F720.000
G1 X186.674 Y134.116 E41.78923
G1 X185.727 Y133.170 E41.91299
G1 X184.821 Y133.170 E41.99680
G1 X186.674 Y135.022 E42.23909
G1 X186.674 Y135.929 E42.32290
G1 X183.915 Y133.170 E42.68372
G1 X183.009 Y133.170 E42.76753
G1 X186.674 Y136.835 E43.24687
G1 X186.674 Y137.741 E43.33068
G1 X182.103 Y133.170 E43.92855
G1 X181.197 Y133.170 E44.01236
G1 X186.674 Y138.647 E44.72876
G1 X186.674 Y139.553 E44.81257
G1 X180.290 Y133.170 E45.64749
G1 X179.384 Y133.170 E45.73131
G1 X186.674 Y140.459 E46.68476
G1 X186.674 Y141.366 E46.76857
G1 X178.478 Y133.170 E47.84055
G1 X177.572 Y133.170 E47.92436
G1 X186.674 Y142.272 E49.11487
G1 X186.674 Y143.178 E49.19868
G1 X176.666 Y133.170 E50.50771
G1 X175.760 Y133.170 E50.59152
G1 X186.674 Y144.084 E52.01908
G1 X186.674 Y144.990 E52.10290
G1 X174.854 Y133.170 E53.64899
G1 X173.947 Y133.170 E53.73280
G1 X186.674 Y145.896 E55.39741
G1 X186.674 Y146.803 E55.48122
G1 X173.041 Y133.170 E57.26437
G1 X172.135 Y133.170 E57.34818
G1 X186.674 Y147.709 E59.24985
G1 X186.674 Y148.615 E59.33366
G1 X171.229 Y133.170 E61.35386
G1 X170.323 Y133.170 E61.43767
G1 X186.674 Y149.521 E63.57640
G1 X186.674 Y150.427 E63.66021
G1 X169.417 Y133.170 E65.91746
G1 X168.510 Y133.170 E66.00127
G1 X186.674 Y151.333 E68.37706
G1 X186.674 Y152.240 E68.46087
G1 X167.604 Y133.170 E70.95518
G1 X166.698 Y133.170 E71.03899
G1 X186.674 Y153.146 E73.65182
G1 X186.674 Y154.052 E73.73563
G1 X165.792 Y133.170 E76.46700
G1 X164.886 Y133.170 E76.55081
G1 X186.674 Y154.958 E79.40070
G1 X186.674 Y155.864 E79.48451
G1 X163.980 Y133.170 E82.45293
G1 X163.073 Y133.170 E82.53674
G1 X186.674 Y156.770 E85.62369
G1 X186.674 Y157.676 E85.70750
G1 X162.167 Y133.170 E88.91297
G1 X161.261 Y133.170 E88.99678
G1 X186.674 Y158.583 E92.32078
G1 X186.674 Y159.489 E92.40459
G1 X160.355 Y133.170 E95.84712
G1 X159.449 Y133.170 E95.93093
G1 X186.674 Y160.395 E99.49199
G1 X186.674 Y161.301 E99.57580
G1 X158.543 Y133.170 E103.25538
G1 X157.636 Y133.170 E103.33919
G1 X186.674 Y162.207 E107.13730
G1 X186.674 Y163.113 E107.22112
G1 X174.072 Y150.511 E108.86947
G1 X174.363 Y151.709 E108.98342
G1 X186.674 Y164.020 E110.59372
G1 X186.674 Y164.926 E110.67753
G1 X174.414 Y152.666 E112.28115
G1 X174.308 Y153.467 E112.35585
G1 X186.674 Y165.832 E113.97326
G1 X186.674 Y166.738 E114.05708
G1 X174.105 Y154.170 E115.70103
G1 X173.840 Y154.811 E115.76518
G1 X185.859 Y166.830 E117.33733
G1 X184.953 Y166.830 E117.42114
G1 X173.501 Y155.377 E118.91913
G1 X173.107 Y155.890 E118.97890
G1 X184.047 Y166.830 E120.40983
G1 X183.141 Y166.830 E120.49364
G1 X172.667 Y156.356 E121.86366
G1 X172.154 Y156.749 E121.92344
G1 X182.235 Y166.830 E123.24200
G1 X181.328 Y166.830 E123.32581
G1 X171.614 Y157.115 E124.59648
G1 X170.973 Y157.381 E124.66063
G1 X180.422 Y166.830 E125.89658
G1 X179.516 Y166.830 E125.98039
G1 X170.304 Y157.617 E127.18540
G1 X169.503 Y157.723 E127.26010
G1 X178.610 Y166.830 E128.45132
G1 X177.704 Y166.830 E128.53514
G1 X168.597 Y157.723 E129.72637
G1 X167.505 Y157.538 E129.82875
G1 X176.798 Y166.830 E131.04419
G1 X175.891 Y166.830 E131.12801
G1 X142.232 Y133.170 E135.53076
G1 X141.326 Y133.170 E135.61457
G1 X174.985 Y166.830 E140.01732
G1 X174.079 Y166.830 E140.10113
G1 X140.419 Y133.170 E144.50388
G1 X139.513 Y133.170 E144.58769
G1 X173.173 Y166.830 E148.99044
G1 X172.267 Y166.830 E149.07425
G1 X138.607 Y133.170 E153.47700
G1 X137.701 Y133.170 E153.56081
G1 X171.361 Y166.830 E157.96356
G1 X170.454 Y166.830 E158.04737
G1 X136.795 Y133.170 E162.45012
G1 X135.889 Y133.170 E162.53393
G1 X169.548 Y166.830 E166.93668
G1 X168.642 Y166.830 E167.02049
G1 X134.982 Y133.170 E171.42324
G1 X134.076 Y133.170 E171.50705
G1 X167.736 Y166.830 E175.90980
G1 X166.830 Y166.830 E175.99361
G1 X133.170 Y133.170 E180.39636
G1 X132.264 Y133.170 E180.48017
G1 X165.924 Y166.830 E184.88292
G1 X165.018 Y166.830 E184.96673
G1 X131.358 Y133.170 E189.36948
G1 X130.452 Y133.170 E189.45329
G1 X164.111 Y166.830 E193.85604
G1 X163.205 Y166.830 E193.93986
G1 X129.546 Y133.170 E198.34260
G1 X128.639 Y133.170 E198.42642
G1 X162.299 Y166.830 E202.82917
G1 X161.393 Y166.830 E202.91298
G1 X127.733 Y133.170 E207.31573
G1 X126.827 Y133.170 E207.39954
G1 X160.487 Y166.830 E211.80229
G1 X159.581 Y166.830 E211.88610
G1 X125.921 Y133.170 E216.28885
G1 X125.015 Y133.170 E216.37266
G1 X158.674 Y166.830 E220.77541
G1 X157.768 Y166.830 E220.85922
G1 X124.109 Y133.170 E225.26197
G1 X123.202 Y133.170 E225.34578
G1 X156.862 Y166.830 E229.74853
G1 X155.956 Y166.830 E229.83234
G1 X122.296 Y133.170 E234.23509
G1 X121.390 Y133.170 E234.31890
G1 X155.050 Y166.830 E238.72165
G1 X154.144 Y166.830 E238.80546
G1 X120.484 Y133.170 E243.20821
G1 X119.578 Y133.170 E243.29202
G1 X153.237 Y166.830 E247.69477
G1 X152.331 Y166.830 E247.77858
G1 X136.018 Y150.517 E249.91235
G1 X136.284 Y151.688 E250.02343
G1 X151.425 Y166.830 E252.00397
G1 X150.519 Y166.830 E252.08778
G1 X136.300 Y152.611 E253.94765
G1 X136.227 Y153.444 E254.02500
G1 X149.613 Y166.830 E255.77589
G1 X148.707 Y166.830 E255.85970
G1 X136.012 Y154.136 E257.52013
G1 X135.761 Y154.791 E257.58502
G1 X147.800 Y166.830 E259.15975
G1 X146.894 Y166.830 E259.24357
G1 X135.411 Y155.346 E260.74562
G1 X135.046 Y155.887 E260.80599
G1 X145.988 Y166.830 E262.23728
G1 X145.082 Y166.830 E262.32109
G1 X134.575 Y156.323 E263.69544
G1 X134.104 Y156.758 E263.75475
G1 X144.176 Y166.830 E265.07215
G1 X143.270 Y166.830 E265.15596
G1 X133.520 Y157.080 E266.43126
G1 X132.926 Y157.392 E266.49331
G1 X142.364 Y166.830 E267.72773
G1 X141.457 Y166.830 E267.81154
G1 X132.213 Y157.586 E269.02069
G1 X131.474 Y157.753 E269.09076
G1 X140.551 Y166.830 E270.27803
G1 X139.645 Y166.830 E270.36184
G1 X130.539 Y157.724 E271.55288
G1 X129.423 Y157.514 E271.65790
G1 X138.739 Y166.830 E272.87638
G1 X137.833 Y166.830 E272.96020
G1 X113.326 Y142.324 E276.16567
G1 X113.326 Y143.230 E276.24948
G1 X136.927 Y166.830 E279.33643
G1 X136.020 Y166.830 E279.42024
G1 X113.326 Y144.136 E282.38866
G1 X113.326 Y145.042 E282.47247
G1 X135.114 Y166.830 E285.32236
G1 X134.208 Y166.830 E285.40617
G1 X113.326 Y145.948 E288.13753
G1 X113.326 Y146.854 E288.22134
G1 X133.302 Y166.830 E290.83418
G1 X132.396 Y166.830 E290.91799
G1 X113.326 Y147.760 E293.41230
G1 X113.326 Y148.667 E293.49611
G1 X131.490 Y166.830 E295.87189
G1 X130.583 Y166.830 E295.95570
G1 X113.326 Y149.573 E298.21296
G1 X113.326 Y150.479 E298.29677
G1 X129.677 Y166.830 E300.43549
G1 X128.771 Y166.830 E300.51930
G1 X113.326 Y151.385 E302.53950
G1 X113.326 Y152.291 E302.62331
G1 X127.865 Y166.830 E304.52498
G1 X126.959 Y166.830 E304.60880
G1 X113.326 Y153.197 E306.39194
G1 X113.326 Y154.104 E306.47575
G1 X126.053 Y166.830 E308.14037
G1 X125.146 Y166.830 E308.22418
G1 X113.326 Y155.010 E309.77027
G1 X113.326 Y155.916 E309.85408
G1 X124.240 Y166.830 E311.28164
G1 X123.334 Y166.830 E311.36545
G1 X113.326 Y156.822 E312.67449
G1 X113.326 Y157.728 E312.75830
G1 X122.428 Y166.830 E313.94880
G1 X121.522 Y166.830 E314.03261
G1 X113.326 Y158.634 E315.10459
G1 X113.326 Y159.541 E315.18841
G1 X120.616 Y166.830 E316.14186
G1 X119.710 Y166.830 E316.22567
G1 X113.326 Y160.447 E317.06059
G1 X113.326 Y161.353 E317.14440
G1 X118.803 Y166.830 E317.86080
G1 X117.897 Y166.830 E317.94461
G1 X113.326 Y162.259 E318.54248
G1 X113.326 Y163.165 E318.62629
G1 X116.991 Y166.830 E319.10563
G1 X116.085 Y166.830 E319.18945
G1 X113.326 Y164.071 E319.55026
G1 X113.326 Y164.978 E319.63407
G1 X115.179 Y166.830 E319.87636
G1 X114.273 Y166.830 E319.96017
G1 X113.326 Y165.884 E320.08393
G1 X113.326 Y166.790 E320.16774
G1 X113.366 Y166.830 E320.17297
G1 X125.802 Y153.893 F3600.000
G1 X113.326 Y141.417 E321.80477 F720.000
G1 X113.326 Y140.511 E321.88858
G1 X125.576 Y152.761 E323.49086
G1 X125.610 Y151.889 E323.57158
G1 X113.326 Y139.605 E325.17833
G1 X113.326 Y138.699 E325.26214
G1 X125.738 Y151.110 E326.88555
G1 X125.952 Y150.419 E326.95252
G1 X113.326 Y137.793 E328.60400
G1 X113.326 Y136.887 E328.68782
G1 X126.244 Y149.804 E330.37749
G1 X126.595 Y149.249 E330.43825
G1 X113.326 Y135.980 E332.17377
G1 X113.326 Y135.074 E332.25758
G1 X126.996 Y148.744 E334.04560
G1 X127.467 Y148.309 E334.10491
G1 X113.326 Y134.168 E335.95452
G1 X113.326 Y133.262 E336.03833
G1 X127.965 Y147.901 E337.95312
G1 X128.559 Y147.588 E338.01518
G1 X114.141 Y133.170 E339.90110
G1 X115.047 Y133.170 E339.98492
G1 X129.171 Y147.294 E341.83230
G1 X129.909 Y147.126 E341.90237
G1 X115.953 Y133.170 E343.72787
G1 X116.859 Y133.170 E343.81168
G1 X130.702 Y147.012 E345.62229
G1 X131.645 Y147.049 E345.70958
G1 X117.765 Y133.170 E347.52502
G1 X118.672 Y133.170 E347.60883
G1 X132.872 Y147.371 E349.46633
G1 X143.138 Y133.170 F3600.000
G1 X163.894 Y153.926 E352.18122 F720.000
G1 X163.709 Y152.835 E352.28360
G1 X144.044 Y133.170 E354.85575
G1 X144.950 Y133.170 E354.93956
G1 X163.708 Y151.928 E357.39318
G1 X163.814 Y151.128 E357.46788
G1 X145.856 Y133.170 E359.81676
G1 X146.763 Y133.170 E359.90057
G1 X164.050 Y150.458 E362.16186
G1 X164.316 Y149.817 E362.22601
G1 X147.669 Y133.170 E364.40349
G1 X148.575 Y133.170 E364.48730
G1 X164.682 Y149.277 E366.59414
G1 X165.075 Y148.765 E366.65392
G1 X149.481 Y133.170 E368.69370
G1 X150.387 Y133.170 E368.77751
G1 X165.541 Y148.324 E370.75966
G1 X166.054 Y147.931 E370.81944
G1 X151.293 Y133.170 E372.75013
G1 X152.200 Y133.170 E372.83394
G1 X166.621 Y147.591 E374.72026
G1 X167.261 Y147.326 E374.78441
G1 X153.106 Y133.170 E376.63601
G1 X154.012 Y133.170 E376.71982
G1 X167.965 Y147.123 E378.54488
G1 X168.765 Y147.018 E378.61958
G1 X154.918 Y133.170 E380.43085
G1 X155.824 Y133.170 E380.51466
G1 X169.723 Y147.069 E382.33262
G1 X170.920 Y147.360 E382.44656
G1 X156.730 Y133.170 E384.30256
M104 S180 ; set temperature
G1 F1800.000 E383.30256
G92 E0
G1 Z0.650 F3600.000
G1 X135.452 Y153.154 F3600.000
G1 E1.00000 F1800.000
G1 X135.098 Y154.293 E1.05949 F1800.000
G1 X134.462 Y155.301 E1.11898
G1 X133.587 Y156.111 E1.17846
G1 X132.531 Y156.666 E1.23795
G1 X131.369 Y156.930 E1.29744
G1 X130.177 Y156.883 E1.35693
G1 X129.038 Y156.530 E1.41641
G1 X128.372 Y156.109 E1.45571
G1 X128.030 Y155.893 E1.47590
G1 X127.220 Y155.018 E1.53539
G1 X126.665 Y153.963 E1.59488
G1 X126.402 Y152.800 E1.65437
G1 X126.448 Y151.608 E1.71385
G1 X126.802 Y150.470 E1.77334
G1 X127.438 Y149.461 E1.83283
G1 X128.313 Y148.652 E1.89232
G1 X129.369 Y148.096 E1.95181
G1 X130.531 Y147.833 E2.01129
G1 X131.318 Y147.864 E2.05059
G1 X131.723 Y147.880 E2.07078 F1800.000
G1 X132.862 Y148.233 E2.13027
G1 X133.870 Y148.869 E2.18976
G1 X134.680 Y149.745 E2.24925
G1 X135.235 Y150.800 E2.30873
G1 X135.498 Y151.963 E2.36822
G1 X135.454 Y153.094 E2.42472
G1 X135.054 Y153.086 F3600.000
G1 X134.732 Y154.124 E2.47895 F1260.000
G1 X134.152 Y155.044 E2.53318
G1 X133.354 Y155.782 E2.58742
G1 X132.392 Y156.288 E2.64165
G1 X131.332 Y156.528 E2.69588
G1 X130.245 Y156.485 E2.75012
G1 X129.207 Y156.163 E2.80435
G1 X128.288 Y155.583 E2.85858
G1 X127.550 Y154.785 E2.91282
