; generated by Slic3r 1.1.7 on 2014-08-27 at 14:46:29

; perimeters extrusion width = 0.40mm
; infill extrusion width = 0.42mm
; solid infill extrusion width = 0.42mm
; top infill extrusion width = 0.42mm

G21 ; set units to millimeters
M107
M104 S185 ; set temperature
G92 X0 Y0 Z0
G1 Z5 F5000 ; lift nozzle

M109 S185 ; wait for temperature to be reached
G90 ; use absolute coordinates
G92 E0
M82 ; use absolute distances for extrusion
G1 F1800.000 E-1.00000
G92 E0
G1 Z0.350 F3600.000
G1 X43.340 Y102.566 F3600.000
G1 E1.00000 F1800.000
G1 X81.440 Y87.293 E4.79649 F720.000
G1 X83.909 Y86.817 E5.02906
G1 X216.091 Y86.817 E17.25466
G1 X218.560 Y87.293 E17.48724
G1 X256.660 Y102.566 E21.28373 F720.000
G1 X258.610 Y103.775 E21.49602
G1 X260.032 Y105.577 E21.70832
G1 X260.826 Y108.725 E22.00857
G1 X260.826 Y191.275 E29.64370
G1 X260.429 Y193.536 E29.85599
G1 X259.286 Y195.526 E30.06829
G1 X256.660 Y197.434 E30.36854
G1 X218.560 Y212.707 E34.16503
G1 X216.091 Y213.183 E34.39760
G1 X83.909 Y213.183 E46.62320
G1 X81.440 Y212.707 E46.85578
G1 X43.340 Y197.434 E50.65227
G1 X41.390 Y196.225 E50.86456
G1 X39.968 Y194.423 E51.07686
G1 X39.174 Y191.275 E51.37711
G1 X39.174 Y108.725 E59.01224
G1 X39.571 Y106.464 E59.22453
G1 X40.714 Y104.474 E59.43683
G1 X43.292 Y102.601 E59.73153
G1 F1800.000 E58.73153
G92 E0
G1 X235.517 Y173.992 F3600.000
G1 E1.00000 F1800.000
G1 X234.225 Y173.921 E1.11967 F540.000
G1 X232.995 Y173.518 E1.23935
G1 X231.912 Y172.811 E1.35902
G1 X231.049 Y171.847 E1.47870
G1 X230.464 Y170.692 E1.59838
G1 X230.199 Y169.426 E1.71805
G1 X230.270 Y168.134 E1.83773
G1 X230.673 Y166.904 E1.95740
G1 X231.380 Y165.821 E2.07708
G1 X232.344 Y164.958 E2.19675
G1 X233.499 Y164.373 E2.31643
G1 X234.765 Y164.108 E2.43610
G1 X234.928 Y164.117 E2.45117
G1 X236.057 Y164.179 E2.55578 F540.000
G1 X237.286 Y164.582 E2.67545
G1 X238.370 Y165.289 E2.79513
G1 X239.233 Y166.253 E2.91480
G1 X239.817 Y167.408 E3.03448
G1 X240.083 Y168.674 E3.15415
G1 X240.012 Y169.966 E3.27383
G1 X239.609 Y171.196 E3.39350
G1 X238.901 Y172.279 E3.51318
G1 X237.937 Y173.142 E3.63286
G1 X236.783 Y173.727 E3.75253
G1 X235.575 Y173.980 E3.86666
G1 X235.468 Y173.353 F3600.000
G1 X234.343 Y173.291 E3.97085 F378.000
G1 X233.273 Y172.940 E4.07505
G1 X232.330 Y172.324 E4.17924
G1 X231.578 Y171.485 E4.28344
G1 X231.069 Y170.480 E4.38763
G1 X230.838 Y169.377 E4.49183
G1 X230.900 Y168.252 E4.59603
G1 X231.251 Y167.182 E4.70022
G1 X231.867 Y166.239 E4.80442
G1 X232.706 Y165.487 E4.90861
G1 X233.711 Y164.978 E5.01281
G1 X233.868 Y164.945 E5.02762
G1 X234.814 Y164.747 E5.11701 F378.000
G1 X235.938 Y164.809 E5.22120
G1 X237.009 Y165.160 E5.32540
G1 X237.952 Y165.776 E5.42959
G1 X238.704 Y166.615 E5.53379
G1 X239.212 Y167.620 E5.63798
G1 X239.444 Y168.723 E5.74218
G1 X239.382 Y169.848 E5.84638
G1 X239.031 Y170.918 E5.95057
G1 X238.415 Y171.861 E6.05477
G1 X237.576 Y172.613 E6.15896
G1 X236.571 Y173.122 E6.26316
G1 X235.527 Y173.341 E6.36180
G1 F1800.000 E5.36180
G92 E0
G1 X233.771 Y164.557 F3600.000
G1 X235.141 Y135.907 F3600.000
G1 E1.00000 F1800.000
G1 X233.858 Y135.738 E1.11967 F540.000
G1 X232.663 Y135.242 E1.23935
G1 X231.636 Y134.455 E1.35902
G1 X230.848 Y133.428 E1.47870
G1 X230.353 Y132.233 E1.59837
G1 X230.184 Y130.950 E1.71805
G1 X230.353 Y129.667 E1.83773
G1 X230.848 Y128.472 E1.95740
G1 X231.636 Y127.445 E2.07708
G1 X232.663 Y126.658 E2.19675
G1 X233.858 Y126.162 E2.31643
G1 X235.141 Y125.993 E2.43610
G1 X235.382 Y126.025 E2.45865
G1 X236.424 Y126.162 E2.55578 F540.000
G1 X237.619 Y126.658 E2.67545
G1 X238.646 Y127.445 E2.79513
G1 X239.433 Y128.472 E2.91480
G1 X239.928 Y129.667 E3.03448
G1 X240.097 Y130.950 E3.15415
G1 X239.928 Y132.233 E3.27383
G1 X239.527 Y133.203 E3.37095
G1 X239.433 Y133.428 E3.39350
G1 X238.646 Y134.455 E3.51318
G1 X237.619 Y135.242 E3.63285
G1 X236.424 Y135.738 E3.75253
G1 X235.200 Y135.899 E3.86666
G1 X235.141 Y135.265 F3600.000
G1 X234.024 Y135.118 E3.97085 F378.000
G1 X232.983 Y134.687 E4.07505
G1 X232.089 Y134.001 E4.17924
G1 X231.404 Y133.108 E4.28344
G1 X230.972 Y132.067 E4.38763
G1 X230.825 Y130.950 E4.49183
G1 X230.972 Y129.833 E4.59603
G1 X231.404 Y128.792 E4.70022
G1 X232.089 Y127.899 E4.80442
G1 X232.983 Y127.213 E4.90861
G1 X234.024 Y126.782 E5.01281
G1 X234.183 Y126.761 E5.02762
G1 X235.141 Y126.635 E5.11700 F378.000
G1 X236.258 Y126.782 E5.22120
G1 X237.299 Y127.213 E5.32540
G1 X238.192 Y127.899 E5.42959
G1 X238.878 Y128.792 E5.53379
G1 X239.309 Y129.833 E5.63798
G1 X239.456 Y130.950 E5.74218
G1 X239.309 Y132.067 E5.84637
G1 X238.939 Y132.960 E5.93576
G1 X238.878 Y133.108 E5.95057
G1 X238.192 Y134.001 E6.05477
G1 X237.299 Y134.687 E6.15896
G1 X236.258 Y135.118 E6.26316
G1 X235.200 Y135.258 E6.36180
G1 F1800.000 E5.36180
G92 E0
G1 X234.116 Y126.366 F3600.000
G1 X181.412 Y119.143 F3600.000
G1 E1.00000 F1800.000
G1 X181.133 Y119.634 E1.05221 F540.000
G1 X180.736 Y120.035 E1.10443
G1 X180.249 Y120.320 E1.15664
G1 X179.704 Y120.469 E1.20886
G1 X179.140 Y120.473 E1.26107
G1 X178.593 Y120.330 E1.31328
G1 X178.103 Y120.051 E1.36550
G1 X177.701 Y119.654 E1.41771
G1 X177.416 Y119.166 E1.46993
G1 X177.267 Y118.622 E1.52214
G1 X177.264 Y118.058 E1.57435
G1 X177.406 Y117.511 E1.62657
G1 X177.686 Y117.021 E1.67878
G1 X178.083 Y116.619 E1.73099
G1 X178.570 Y116.334 E1.78321
G1 X179.114 Y116.185 E1.83543
G1 X179.679 Y116.182 E1.88764
G1 X180.225 Y116.324 E1.93985
G1 X180.716 Y116.604 E1.99207 F540.000
G1 X181.117 Y117.001 E2.04428
G1 X181.402 Y117.488 E2.09649
G1 X181.552 Y118.032 E2.14871
G1 X181.555 Y118.597 E2.20092
G1 X181.427 Y119.085 E2.24759
G1 X180.818 Y118.901 F3600.000
G1 X180.622 Y119.246 E2.28432 F378.000
G1 X180.342 Y119.529 E2.32106
G1 X180.000 Y119.729 E2.35779
G1 X179.617 Y119.834 E2.39453
G1 X179.220 Y119.837 E2.43126
G1 X178.835 Y119.736 E2.46799
G1 X178.490 Y119.540 E2.50473
G1 X178.208 Y119.260 E2.54147
G1 X178.007 Y118.918 E2.57820
G1 X177.902 Y118.535 E2.61493
G1 X177.900 Y118.137 E2.65167
G1 X178.000 Y117.753 E2.68840
G1 X178.197 Y117.408 E2.72514
G1 X178.476 Y117.126 E2.76187
G1 X178.819 Y116.925 E2.79861
G1 X179.202 Y116.820 E2.83534
G1 X179.599 Y116.818 E2.87208 F378.000
G1 X179.983 Y116.918 E2.90881
G1 X180.328 Y117.115 E2.94554
G1 X180.611 Y117.394 E2.98228
G1 X180.811 Y117.737 E3.01901
G1 X180.916 Y118.120 E3.05575
G1 X180.919 Y118.517 E3.09248
G1 X180.833 Y118.843 E3.12367
G1 F1800.000 E2.12367
G92 E0
G1 X179.097 Y116.437 F3600.000
G1 X174.192 Y164.666 F3600.000
G1 E1.00000 F1800.000
G1 X174.749 Y164.761 E1.05222 F540.000
G1 X175.262 Y164.997 E1.10443 F540.000
G1 X175.696 Y165.358 E1.15665
G1 X176.022 Y165.819 E1.20886
G1 X176.218 Y166.348 E1.26107
G1 X176.270 Y166.910 E1.31329
G1 X176.175 Y167.467 E1.36550
G1 X175.939 Y167.980 E1.41772
G1 X175.578 Y168.414 E1.46993
G1 X175.118 Y168.740 E1.52214
G1 X174.588 Y168.936 E1.57436
G1 X174.026 Y168.988 E1.62657
G1 X173.470 Y168.893 E1.67879
G1 X172.957 Y168.657 E1.73100
G1 X172.522 Y168.296 E1.78321
G1 X172.196 Y167.836 E1.83543
G1 X172.000 Y167.306 E1.88764
G1 X171.948 Y166.744 E1.93986
G1 X172.043 Y166.188 E1.99207
G1 X172.279 Y165.675 E2.04429
G1 X172.640 Y165.240 E2.09650
G1 X173.101 Y164.914 E2.14871
G1 X173.630 Y164.718 E2.20093
G1 X174.133 Y164.672 E2.24759
G1 X174.168 Y165.307 F3600.000
G1 X174.559 Y165.374 E2.28433 F378.000
G1 X174.920 Y165.540 E2.32106
G1 X175.226 Y165.794 E2.35780
G1 X175.455 Y166.118 E2.39453
G1 X175.593 Y166.490 E2.43127
G1 X175.629 Y166.886 E2.46800
G1 X175.563 Y167.277 E2.50473
G1 X175.397 Y167.638 E2.54147
G1 X175.143 Y167.944 E2.57820
G1 X174.819 Y168.173 E2.61494
G1 X174.446 Y168.311 E2.65167
G1 X174.051 Y168.347 E2.68841
G1 X173.659 Y168.281 E2.72514
G1 X173.298 Y168.115 E2.76188
G1 X172.993 Y167.861 E2.79861
G1 X172.763 Y167.537 E2.83535
G1 X172.626 Y167.164 E2.87208
G1 X172.589 Y166.769 E2.90882
G1 X172.656 Y166.377 E2.94555
G1 X172.822 Y166.016 E2.98229
G1 X173.076 Y165.711 E3.01902
G1 X173.400 Y165.481 E3.05575
G1 X173.772 Y165.344 E3.09249
G1 X174.108 Y165.312 E3.12367 F378.000
G1 X173.751 Y165.007 F3600.000
G1 X151.826 Y152.467 F3600.000
G1 X151.464 Y152.900 E3.17589 F540.000
G1 X151.001 Y153.224 E3.22810
G1 X150.471 Y153.418 E3.28031
G1 X149.909 Y153.467 E3.33253
G1 X149.353 Y153.370 E3.38474
G1 X148.841 Y153.132 E3.43696
G1 X148.408 Y152.770 E3.48917
G1 X148.084 Y152.308 E3.54139
G1 X147.890 Y151.777 E3.59360
G1 X147.840 Y151.215 E3.64581
G1 X147.938 Y150.659 E3.69803
G1 X148.176 Y150.147 E3.75024
G1 X148.538 Y149.714 E3.80245
G1 X149.000 Y149.390 E3.85467
G1 X149.530 Y149.196 E3.90688
G1 X150.093 Y149.146 E3.95910
G1 X150.649 Y149.244 E4.01131
G1 X151.161 Y149.482 E4.06353 F540.000
G1 X151.594 Y149.844 E4.11574
G1 X151.918 Y150.306 E4.16795
G1 X152.112 Y150.837 E4.22017
G1 X152.161 Y151.399 E4.27238
G1 X152.064 Y151.955 E4.32460
G1 X151.851 Y152.412 E4.37126
G1 X151.285 Y152.123 F3600.000
G1 X151.030 Y152.427 E4.40799 F378.000
G1 X150.705 Y152.656 E4.44473
G1 X150.332 Y152.792 E4.48146
G1 X149.936 Y152.827 E4.51820
G1 X149.545 Y152.758 E4.55494
G1 X149.185 Y152.591 E4.59167
G1 X148.880 Y152.336 E4.62840
G1 X148.652 Y152.011 E4.66514
G1 X148.516 Y151.638 E4.70187
G1 X148.481 Y151.242 E4.73861
G1 X148.549 Y150.851 E4.77534
G1 X148.717 Y150.491 E4.81208
G1 X148.972 Y150.186 E4.84881
G1 X149.297 Y149.958 E4.88555
G1 X149.670 Y149.822 E4.92228
G1 X150.066 Y149.787 E4.95901 F378.000
G1 X150.457 Y149.855 E4.99575
G1 X150.817 Y150.023 E5.03249
G1 X151.121 Y150.278 E5.06922
G1 X151.350 Y150.603 E5.10595
G1 X151.486 Y150.976 E5.14269
G1 X151.521 Y151.372 E5.17942
G1 X151.452 Y151.763 E5.21616
G1 X151.310 Y152.069 E5.24734
G1 F1800.000 E4.24734
G92 E0
G1 X149.550 Y149.443 F3600.000
G1 X150.112 Y125.587 F3600.000
G1 E1.00000 F1800.000
G1 X149.549 Y125.540 E1.05221 F540.000
G1 X149.018 Y125.349 E1.10443
G1 X148.554 Y125.027 E1.15664
G1 X148.190 Y124.596 E1.20886
G1 X147.949 Y124.085 E1.26107
G1 X147.849 Y123.530 E1.31328
G1 X147.896 Y122.967 E1.36550
G1 X148.087 Y122.436 E1.41771
G1 X148.409 Y121.972 E1.46993
G1 X148.840 Y121.608 E1.52214
G1 X149.351 Y121.367 E1.57436
G1 X149.907 Y121.267 E1.62657
G1 X150.469 Y121.314 E1.67878
G1 X151.000 Y121.505 E1.73100 F540.000
G1 X151.464 Y121.827 E1.78321
G1 X151.829 Y122.258 E1.83542
G1 X152.069 Y122.769 E1.88764
G1 X152.169 Y123.324 E1.93985
G1 X152.122 Y123.887 E1.99207
G1 X151.931 Y124.418 E2.04428
G1 X151.609 Y124.882 E2.09650
G1 X151.178 Y125.247 E2.14871
G1 X150.667 Y125.487 E2.20092
G1 X150.171 Y125.577 E2.24759
G1 X150.081 Y124.947 F3600.000
G1 X149.686 Y124.914 E2.28432 F378.000
G1 X149.312 Y124.779 E2.32106
G1 X148.986 Y124.553 E2.35779
G1 X148.729 Y124.250 E2.39453
G1 X148.560 Y123.890 E2.43126
G1 X148.490 Y123.499 E2.46800
G1 X148.523 Y123.104 E2.50473
G1 X148.657 Y122.730 E2.54147
G1 X148.884 Y122.404 E2.57820
G1 X149.187 Y122.147 E2.61494
G1 X149.546 Y121.978 E2.65167
G1 X149.937 Y121.907 E2.68840 F378.000
G1 X150.333 Y121.941 E2.72514
G1 X150.706 Y122.075 E2.76187
G1 X151.033 Y122.301 E2.79861
G1 X151.289 Y122.605 E2.83534
G1 X151.458 Y122.964 E2.87208
G1 X151.529 Y123.355 E2.90881
G1 X151.496 Y123.751 E2.94555
G1 X151.361 Y124.124 E2.98228
G1 X151.135 Y124.451 E3.01902
G1 X150.832 Y124.707 E3.05575
G1 X150.472 Y124.876 E3.09248
G1 X150.140 Y124.936 E3.12367
G1 F1800.000 E2.12367
G92 E0
G1 X149.459 Y121.591 F3600.000
G1 X69.822 Y130.950 F3600.000
G1 E1.00000 F1800.000
G1 X69.653 Y132.234 E1.11983 F540.000
G1 X69.157 Y133.431 E1.23965
G1 X68.368 Y134.459 E1.35949
G1 X68.175 Y134.608 E1.38205
G1 X67.341 Y135.248 E1.47932
G1 X66.144 Y135.744 E1.59914
G1 X64.859 Y135.913 E1.71897
G1 X63.575 Y135.744 E1.83880
G1 X62.378 Y135.248 E1.95863
G1 X61.350 Y134.459 E2.07846
G1 X60.561 Y133.431 E2.19828
G1 X60.468 Y133.206 E2.22085
G1 X60.065 Y132.234 E2.31811
G1 X59.896 Y130.950 E2.43794
G1 X60.065 Y129.665 E2.55777
G1 X60.561 Y128.469 E2.67759
G1 X61.350 Y127.441 E2.79743
G1 X62.378 Y126.652 E2.91725
G1 X63.575 Y126.156 E3.03708
G1 X64.859 Y125.987 E3.15691
G1 X65.902 Y126.124 E3.25418
G1 X66.144 Y126.156 E3.27674 F540.000
G1 X67.341 Y126.652 E3.39657
G1 X68.368 Y127.441 E3.51640
G1 X69.157 Y128.469 E3.63622
G1 X69.653 Y129.666 E3.75606
G1 X69.814 Y130.891 E3.87033
G1 X69.181 Y130.950 F3600.000
G1 X69.034 Y132.069 E3.97468 F378.000
G1 X68.602 Y133.111 E4.07903
G1 X67.915 Y134.006 E4.18338
G1 X67.788 Y134.104 E4.19821
G1 X67.020 Y134.693 E4.28773
G1 X65.978 Y135.125 E4.39208
G1 X64.859 Y135.272 E4.49643
G1 X63.741 Y135.125 E4.60078
G1 X62.698 Y134.693 E4.70513
G1 X61.803 Y134.006 E4.80947
G1 X61.116 Y133.111 E4.91382
G1 X60.685 Y132.069 E5.01817
G1 X60.537 Y130.950 E5.12252
G1 X60.685 Y129.831 E5.22687
G1 X61.116 Y128.789 E5.33122
G1 X61.803 Y127.894 E5.43557
G1 X62.698 Y127.207 E5.53992
G1 X63.741 Y126.775 E5.64427
G1 X64.700 Y126.649 E5.73379
G1 X64.859 Y126.628 E5.74861 F378.000
G1 X65.978 Y126.775 E5.85296
G1 X67.020 Y127.207 E5.95731
G1 X67.915 Y127.894 E6.06166
G1 X68.602 Y128.789 E6.16601
G1 X69.034 Y129.831 E6.27036
G1 X69.173 Y130.891 E6.36916
G1 F1800.000 E5.36916
G92 E0
G1 X64.638 Y126.501 F3600.000
G1 X96.036 Y119.408 F3600.000
G1 E1.00000 F1800.000
G1 X95.820 Y118.887 E1.05221 F540.000
G1 X95.747 Y118.327 E1.10443
G1 X95.820 Y117.767 E1.15664
G1 X96.036 Y117.246 E1.20886
G1 X96.380 Y116.798 E1.26107
G1 X96.828 Y116.454 E1.31328
G1 X97.350 Y116.238 E1.36550
G1 X97.909 Y116.165 E1.41771
G1 X98.469 Y116.238 E1.46993
G1 X98.990 Y116.454 E1.52214 F540.000
G1 X99.438 Y116.798 E1.57436
G1 X99.782 Y117.246 E1.62657
G1 X99.998 Y117.767 E1.67878
G1 X100.072 Y118.327 E1.73100
G1 X99.998 Y118.887 E1.78321
G1 X99.782 Y119.408 E1.83542
G1 X99.438 Y119.856 E1.88764
G1 X98.990 Y120.200 E1.93985
G1 X98.469 Y120.416 E1.99207
G1 X97.909 Y120.490 E2.04428
G1 X97.350 Y120.416 E2.09649
G1 X96.828 Y120.200 E2.14871
G1 X96.380 Y119.856 E2.20092
G1 X96.073 Y119.456 E2.24759
G1 X96.592 Y119.088 F3600.000
G1 X96.440 Y118.721 E2.28432 F378.000
G1 X96.388 Y118.327 E2.32106
G1 X96.440 Y117.933 E2.35779
G1 X96.592 Y117.566 E2.39453
G1 X96.833 Y117.251 E2.43126
G1 X97.148 Y117.010 E2.46800
G1 X97.515 Y116.858 E2.50473
G1 X97.909 Y116.806 E2.54146 F378.000
G1 X98.303 Y116.858 E2.57820
G1 X98.670 Y117.010 E2.61494
G1 X98.985 Y117.251 E2.65167
G1 X99.227 Y117.566 E2.68840
G1 X99.379 Y117.933 E2.72514
G1 X99.431 Y118.327 E2.76187
G1 X99.379 Y118.721 E2.79861
G1 X99.227 Y119.088 E2.83534
G1 X98.985 Y119.403 E2.87208
G1 X98.670 Y119.645 E2.90881
G1 X98.303 Y119.797 E2.94555
G1 X97.909 Y119.849 E2.98228
G1 X97.515 Y119.797 E3.01902
G1 X97.148 Y119.645 E3.05575
G1 X96.833 Y119.403 E3.09249
G1 X96.628 Y119.135 E3.12367
G1 F1800.000 E2.12367
G92 E0
G1 X97.515 Y116.460 F3600.000
G1 X99.209 Y164.665 F3600.000
G1 E1.00000 F1800.000
G1 X99.769 Y164.738 E1.05222 F540.000
G1 X100.290 Y164.954 E1.10443 F540.000
G1 X100.738 Y165.298 E1.15664
G1 X101.082 Y165.746 E1.20886
G1 X101.298 Y166.267 E1.26107
G1 X101.372 Y166.827 E1.31329
G1 X101.298 Y167.387 E1.36550
G1 X101.082 Y167.908 E1.41771
G1 X100.738 Y168.356 E1.46993
G1 X100.290 Y168.700 E1.52214
G1 X99.769 Y168.916 E1.57435
G1 X99.209 Y168.990 E1.62657
G1 X98.650 Y168.916 E1.67878
G1 X98.128 Y168.700 E1.73100
G1 X97.680 Y168.356 E1.78321
G1 X97.336 Y167.908 E1.83542
G1 X97.120 Y167.387 E1.88764
G1 X97.047 Y166.827 E1.93985
G1 X97.120 Y166.267 E1.99207
G1 X97.336 Y165.746 E2.04428
G1 X97.680 Y165.298 E2.09650
G1 X98.128 Y164.954 E2.14871
G1 X98.650 Y164.738 E2.20093
G1 X99.150 Y164.672 E2.24759
G1 X99.209 Y165.306 F3600.000
G1 X99.603 Y165.358 E2.28433 F378.000
G1 X99.970 Y165.510 E2.32106
G1 X100.285 Y165.751 E2.35779
G1 X100.527 Y166.066 E2.39453
G1 X100.679 Y166.433 E2.43126
G1 X100.731 Y166.827 E2.46800
G1 X100.679 Y167.221 E2.50473
G1 X100.527 Y167.588 E2.54147
G1 X100.285 Y167.903 E2.57820
G1 X99.970 Y168.145 E2.61494
G1 X99.603 Y168.297 E2.65167
G1 X99.209 Y168.349 E2.68841
G1 X98.815 Y168.297 E2.72514
G1 X98.448 Y168.145 E2.76188
G1 X98.133 Y167.903 E2.79861
G1 X97.892 Y167.588 E2.83534
G1 X97.740 Y167.221 E2.87208
G1 X97.688 Y166.827 E2.90881
G1 X97.740 Y166.433 E2.94555
G1 X97.892 Y166.066 E2.98228
G1 X98.133 Y165.751 E3.01902
G1 X98.448 Y165.510 E3.05575
G1 X98.815 Y165.358 E3.09249
G1 X99.150 Y165.314 E3.12367 F378.000
