; generated by Slic3r 1.1.7 on 2014-08-27 at 14:31:29

; perimeters extrusion width = 0.40mm
; infill extrusion width = 0.42mm
; solid infill extrusion width = 0.42mm
; top infill extrusion width = 0.42mm

G21 ; set units to millimeters
M107
M104 S200 ; set temperature
G92 X0 Y0 Z0
G1 Z5 F5000 ; lift nozzle

M109 S200 ; wait for temperature to be reached
G90 ; use absolute coordinates
G92 E0
M82 ; use absolute distances for extrusion
G10 ; retract
G92 E0
G1 Z0.350 F7800.000
G1 X43.340 Y102.566 F7800.000
G11 ; unretract
G1 X81.440 Y87.293 E1.29186 F1080.000
G1 X83.909 Y86.817 E1.37100
G1 X216.091 Y86.817 E5.53110
G1 X218.560 Y87.293 E5.61024
G1 X256.660 Y102.566 E6.90210 F1080.000
G1 X258.610 Y103.775 E6.97434
G1 X260.032 Y105.577 E7.04658
G1 X260.826 Y108.725 E7.14875
G1 X260.826 Y191.275 E9.74681
G1 X260.429 Y193.536 E9.81905
G1 X259.286 Y195.526 E9.89129
G1 X256.660 Y197.434 E9.99346
G1 X218.560 Y212.707 E11.28532
G1 X216.091 Y213.183 E11.36446
G1 X83.909 Y213.183 E15.52456
G1 X81.440 Y212.707 E15.60370
G1 X43.340 Y197.434 E16.89556
G1 X41.390 Y196.225 E16.96780
G1 X39.968 Y194.423 E17.04004
G1 X39.174 Y191.275 E17.14221
G1 X39.174 Y108.725 E19.74027
G1 X39.571 Y106.464 E19.81251
G1 X40.714 Y104.474 E19.88475
G1 X43.292 Y102.601 E19.98503
G10 ; retract
G92 E0
G1 X235.517 Y173.992 F7800.000
G11 ; unretract
G1 X234.225 Y173.921 E0.04072 F540.000
G1 X232.995 Y173.518 E0.08145
G1 X231.912 Y172.811 E0.12217
G1 X231.049 Y171.847 E0.16289
G1 X230.464 Y170.692 E0.20361
G1 X230.199 Y169.426 E0.24434
G1 X230.270 Y168.134 E0.28506
G1 X230.673 Y166.904 E0.32578
G1 X231.380 Y165.821 E0.36651
G1 X232.344 Y164.958 E0.40723
G1 X233.499 Y164.373 E0.44795
G1 X234.765 Y164.108 E0.48867
G1 X234.928 Y164.117 E0.49380
G1 X236.057 Y164.179 E0.52940 F540.000
G1 X237.286 Y164.582 E0.57012
G1 X238.370 Y165.289 E0.61084
G1 X239.233 Y166.253 E0.65156
G1 X239.817 Y167.408 E0.69229
G1 X240.083 Y168.674 E0.73301
G1 X240.012 Y169.966 E0.77373
G1 X239.609 Y171.196 E0.81446
G1 X238.901 Y172.279 E0.85518
G1 X237.937 Y173.142 E0.89590
G1 X236.783 Y173.727 E0.93662
G1 X235.575 Y173.980 E0.97546
G1 X235.468 Y173.353 F7800.000
G1 X234.343 Y173.291 E1.01091 F378.000
G1 X233.273 Y172.940 E1.04637
G1 X232.330 Y172.324 E1.08183
G1 X231.578 Y171.485 E1.11728
G1 X231.069 Y170.480 E1.15274
G1 X230.838 Y169.377 E1.18819
G1 X230.900 Y168.252 E1.22365
G1 X231.251 Y167.182 E1.25910
G1 X231.867 Y166.239 E1.29456
G1 X232.706 Y165.487 E1.33001
G1 X233.711 Y164.978 E1.36547
G1 X233.868 Y164.945 E1.37051
G1 X234.814 Y164.747 E1.40093 F378.000
G1 X235.938 Y164.809 E1.43638
G1 X237.009 Y165.160 E1.47184
G1 X237.952 Y165.776 E1.50729
G1 X238.704 Y166.615 E1.54275
G1 X239.212 Y167.620 E1.57820
G1 X239.444 Y168.723 E1.61366
G1 X239.382 Y169.848 E1.64911
G1 X239.031 Y170.918 E1.68457
G1 X238.415 Y171.861 E1.72003
G1 X237.576 Y172.613 E1.75548
G1 X236.571 Y173.122 E1.79094
G1 X235.527 Y173.341 E1.82450
G10 ; retract
G92 E0
G1 X233.771 Y164.557 F7800.000
G1 X235.141 Y135.907 F7800.000
G11 ; unretract
G1 X233.858 Y135.738 E0.04072 F540.000
G1 X232.663 Y135.242 E0.08144
G1 X231.636 Y134.455 E0.12217
G1 X230.848 Y133.428 E0.16289
G1 X230.353 Y132.233 E0.20361
G1 X230.184 Y130.950 E0.24434
G1 X230.353 Y129.667 E0.28506
G1 X230.848 Y128.472 E0.32578
G1 X231.636 Y127.445 E0.36650
G1 X232.663 Y126.658 E0.40723
G1 X233.858 Y126.162 E0.44795
G1 X235.141 Y125.993 E0.48867
G1 X235.382 Y126.025 E0.49635
G1 X236.424 Y126.162 E0.52940 F540.000
G1 X237.619 Y126.658 E0.57012
G1 X238.646 Y127.445 E0.61084
G1 X239.433 Y128.472 E0.65156
G1 X239.928 Y129.667 E0.69229
G1 X240.097 Y130.950 E0.73301
G1 X239.928 Y132.233 E0.77373
G1 X239.527 Y133.203 E0.80678
G1 X239.433 Y133.428 E0.81446
G1 X238.646 Y134.455 E0.85518
G1 X237.619 Y135.242 E0.89590
G1 X236.424 Y135.738 E0.93662
G1 X235.200 Y135.899 E0.97546
G1 X235.141 Y135.265 F7800.000
G1 X234.024 Y135.118 E1.01091 F378.000
G1 X232.983 Y134.687 E1.04637
G1 X232.089 Y134.001 E1.08183
G1 X231.404 Y133.108 E1.11728
G1 X230.972 Y132.067 E1.15274
G1 X230.825 Y130.950 E1.18819
G1 X230.972 Y129.833 E1.22365
G1 X231.404 Y128.792 E1.25910
G1 X232.089 Y127.899 E1.29456
G1 X232.983 Y127.213 E1.33001
G1 X234.024 Y126.782 E1.36547
G1 X234.183 Y126.761 E1.37051
G1 X235.141 Y126.635 E1.40093 F378.000
G1 X236.258 Y126.782 E1.43638
G1 X237.299 Y127.213 E1.47184
G1 X238.192 Y127.899 E1.50729
G1 X238.878 Y128.792 E1.54275
G1 X239.309 Y129.833 E1.57820
G1 X239.456 Y130.950 E1.61366
G1 X239.309 Y132.067 E1.64911
G1 X238.939 Y132.960 E1.67953
G1 X238.878 Y133.108 E1.68457
G1 X238.192 Y134.001 E1.72002
G1 X237.299 Y134.687 E1.75548
G1 X236.258 Y135.118 E1.79094
G1 X235.200 Y135.258 E1.82450
G10 ; retract
G92 E0
G1 X234.116 Y126.366 F7800.000
G1 X181.412 Y119.143 F7800.000
G11 ; unretract
G1 X181.133 Y119.634 E0.01777 F540.000
G1 X180.736 Y120.035 E0.03553
G1 X180.249 Y120.320 E0.05330
G1 X179.704 Y120.469 E0.07107
G1 X179.140 Y120.473 E0.08884
G1 X178.593 Y120.330 E0.10660
G1 X178.103 Y120.051 E0.12437
G1 X177.701 Y119.654 E0.14214
G1 X177.416 Y119.166 E0.15991
G1 X177.267 Y118.622 E0.17767
G1 X177.264 Y118.058 E0.19544
G1 X177.406 Y117.511 E0.21321
G1 X177.686 Y117.021 E0.23098
G1 X178.083 Y116.619 E0.24874
G1 X178.570 Y116.334 E0.26651
G1 X179.114 Y116.185 E0.28428
G1 X179.679 Y116.182 E0.30204
G1 X180.225 Y116.324 E0.31981
G1 X180.716 Y116.604 E0.33758 F540.000
G1 X181.117 Y117.001 E0.35534
G1 X181.402 Y117.488 E0.37311
G1 X181.552 Y118.032 E0.39088
G1 X181.555 Y118.597 E0.40865
G1 X181.427 Y119.085 E0.42453
G1 X180.818 Y118.901 F7800.000
G1 X180.622 Y119.246 E0.43703 F378.000
G1 X180.342 Y119.529 E0.44953
G1 X180.000 Y119.729 E0.46203
G1 X179.617 Y119.834 E0.47453
G1 X179.220 Y119.837 E0.48703
G1 X178.835 Y119.736 E0.49953
G1 X178.490 Y119.540 E0.51203
G1 X178.208 Y119.260 E0.52453
G1 X178.007 Y118.918 E0.53703
G1 X177.902 Y118.535 E0.54953
G1 X177.900 Y118.137 E0.56203
G1 X178.000 Y117.753 E0.57453
G1 X178.197 Y117.408 E0.58703
G1 X178.476 Y117.126 E0.59953
G1 X178.819 Y116.925 E0.61203
G1 X179.202 Y116.820 E0.62453
G1 X179.599 Y116.818 E0.63703 F378.000
G1 X179.983 Y116.918 E0.64953
G1 X180.328 Y117.115 E0.66203
G1 X180.611 Y117.394 E0.67453
G1 X180.811 Y117.737 E0.68703
G1 X180.916 Y118.120 E0.69953
G1 X180.919 Y118.517 E0.71203
G1 X180.833 Y118.843 E0.72264
G10 ; retract
G92 E0
G1 X179.097 Y116.437 F7800.000
G1 X174.192 Y164.666 F7800.000
G11 ; unretract
G1 X174.749 Y164.761 E0.01777 F540.000
G1 X175.262 Y164.997 E0.03554 F540.000
G1 X175.696 Y165.358 E0.05330
G1 X176.022 Y165.819 E0.07107
G1 X176.218 Y166.348 E0.08884
G1 X176.270 Y166.910 E0.10660
G1 X176.175 Y167.467 E0.12437
G1 X175.939 Y167.980 E0.14214
G1 X175.578 Y168.414 E0.15991
G1 X175.118 Y168.740 E0.17767
G1 X174.588 Y168.936 E0.19544
G1 X174.026 Y168.988 E0.21321
G1 X173.470 Y168.893 E0.23098
G1 X172.957 Y168.657 E0.24874
G1 X172.522 Y168.296 E0.26651
G1 X172.196 Y167.836 E0.28428
G1 X172.000 Y167.306 E0.30204
G1 X171.948 Y166.744 E0.31981
G1 X172.043 Y166.188 E0.33758
G1 X172.279 Y165.675 E0.35535
G1 X172.640 Y165.240 E0.37311
G1 X173.101 Y164.914 E0.39088
G1 X173.630 Y164.718 E0.40865
G1 X174.133 Y164.672 E0.42453
G1 X174.168 Y165.307 F7800.000
G1 X174.559 Y165.374 E0.43703 F378.000
G1 X174.920 Y165.540 E0.44953
G1 X175.226 Y165.794 E0.46203
G1 X175.455 Y166.118 E0.47453
G1 X175.593 Y166.490 E0.48703
G1 X175.629 Y166.886 E0.49953
G1 X175.563 Y167.277 E0.51203
G1 X175.397 Y167.638 E0.52453
G1 X175.143 Y167.944 E0.53703
G1 X174.819 Y168.173 E0.54953
G1 X174.446 Y168.311 E0.56203
G1 X174.051 Y168.347 E0.57453
G1 X173.659 Y168.281 E0.58703
G1 X173.298 Y168.115 E0.59953
G1 X172.993 Y167.861 E0.61203
G1 X172.763 Y167.537 E0.62453
G1 X172.626 Y167.164 E0.63703
G1 X172.589 Y166.769 E0.64953
G1 X172.656 Y166.377 E0.66203
G1 X172.822 Y166.016 E0.67453
G1 X173.076 Y165.711 E0.68703
G1 X173.400 Y165.481 E0.69953
G1 X173.772 Y165.344 E0.71203
G1 X174.108 Y165.312 E0.72264 F378.000
G1 X173.751 Y165.007 F7800.000
G1 X151.826 Y152.467 F7800.000
G1 X151.464 Y152.900 E0.74041 F540.000
G1 X151.001 Y153.224 E0.75817
G1 X150.471 Y153.418 E0.77594
G1 X149.909 Y153.467 E0.79371
G1 X149.353 Y153.370 E0.81148
G1 X148.841 Y153.132 E0.82924
G1 X148.408 Y152.770 E0.84701
G1 X148.084 Y152.308 E0.86478
G1 X147.890 Y151.777 E0.88254
G1 X147.840 Y151.215 E0.90031
G1 X147.938 Y150.659 E0.91808
G1 X148.176 Y150.147 E0.93585
G1 X148.538 Y149.714 E0.95361
G1 X149.000 Y149.390 E0.97138
G1 X149.530 Y149.196 E0.98915
G1 X150.093 Y149.146 E1.00691
G1 X150.649 Y149.244 E1.02468
G1 X151.161 Y149.482 E1.04245 F540.000
G1 X151.594 Y149.844 E1.06022
G1 X151.918 Y150.306 E1.07798
G1 X152.112 Y150.837 E1.09575
G1 X152.161 Y151.399 E1.11352
G1 X152.064 Y151.955 E1.13129
G1 X151.851 Y152.412 E1.14716
G1 X151.285 Y152.123 F7800.000
G1 X151.030 Y152.427 E1.15966 F378.000
G1 X150.705 Y152.656 E1.17217
G1 X150.332 Y152.792 E1.18466
G1 X149.936 Y152.827 E1.19716
G1 X149.545 Y152.758 E1.20967
G1 X149.185 Y152.591 E1.22217
G1 X148.880 Y152.336 E1.23467
G1 X148.652 Y152.011 E1.24716
G1 X148.516 Y151.638 E1.25967
G1 X148.481 Y151.242 E1.27217
G1 X148.549 Y150.851 E1.28467
G1 X148.717 Y150.491 E1.29716
G1 X148.972 Y150.186 E1.30966
G1 X149.297 Y149.958 E1.32217
G1 X149.670 Y149.822 E1.33466
G1 X150.066 Y149.787 E1.34716 F378.000
G1 X150.457 Y149.855 E1.35966
G1 X150.817 Y150.023 E1.37217
G1 X151.121 Y150.278 E1.38467
G1 X151.350 Y150.603 E1.39717
G1 X151.486 Y150.976 E1.40967
G1 X151.521 Y151.372 E1.42216
G1 X151.452 Y151.763 E1.43466
G1 X151.310 Y152.069 E1.44528
G10 ; retract
G92 E0
G1 X149.550 Y149.443 F7800.000
G1 X150.112 Y125.587 F7800.000
G11 ; unretract
G1 X149.549 Y125.540 E0.01777 F540.000
G1 X149.018 Y125.349 E0.03553
G1 X148.554 Y125.027 E0.05330
G1 X148.190 Y124.596 E0.07107
G1 X147.949 Y124.085 E0.08884
G1 X147.849 Y123.530 E0.10660
G1 X147.896 Y122.967 E0.12437
G1 X148.087 Y122.436 E0.14214
G1 X148.409 Y121.972 E0.15991
G1 X148.840 Y121.608 E0.17767
G1 X149.351 Y121.367 E0.19544
G1 X149.907 Y121.267 E0.21321
G1 X150.469 Y121.314 E0.23097
G1 X151.000 Y121.505 E0.24874 F540.000
G1 X151.464 Y121.827 E0.26651
G1 X151.829 Y122.258 E0.28428
G1 X152.069 Y122.769 E0.30204
G1 X152.169 Y123.324 E0.31981
G1 X152.122 Y123.887 E0.33758
G1 X151.931 Y124.418 E0.35535
G1 X151.609 Y124.882 E0.37311
G1 X151.178 Y125.247 E0.39088
G1 X150.667 Y125.487 E0.40865
G1 X150.171 Y125.577 E0.42453
G1 X150.081 Y124.947 F7800.000
G1 X149.686 Y124.914 E0.43703 F378.000
G1 X149.312 Y124.779 E0.44953
G1 X148.986 Y124.553 E0.46203
G1 X148.729 Y124.250 E0.47453
G1 X148.560 Y123.890 E0.48703
G1 X148.490 Y123.499 E0.49953
G1 X148.523 Y123.104 E0.51203
G1 X148.657 Y122.730 E0.52453
G1 X148.884 Y122.404 E0.53703
G1 X149.187 Y122.147 E0.54953
G1 X149.546 Y121.978 E0.56203
G1 X149.937 Y121.907 E0.57453 F378.000
G1 X150.333 Y121.941 E0.58703
G1 X150.706 Y122.075 E0.59953
G1 X151.033 Y122.301 E0.61203
G1 X151.289 Y122.605 E0.62453
G1 X151.458 Y122.964 E0.63703
G1 X151.529 Y123.355 E0.64953
G1 X151.496 Y123.751 E0.66203
G1 X151.361 Y124.124 E0.67453
G1 X151.135 Y124.451 E0.68703
G1 X150.832 Y124.707 E0.69953
G1 X150.472 Y124.876 E0.71203
G1 X150.140 Y124.936 E0.72264
G10 ; retract
G92 E0
G1 X149.459 Y121.591 F7800.000
G1 X69.822 Y130.950 F7800.000
G11 ; unretract
G1 X69.653 Y132.234 E0.04077 F540.000
G1 X69.157 Y133.431 E0.08155
G1 X68.368 Y134.459 E0.12232
G1 X68.175 Y134.608 E0.13000
G1 X67.341 Y135.248 E0.16310
G1 X66.144 Y135.744 E0.20387
G1 X64.859 Y135.913 E0.24465
G1 X63.575 Y135.744 E0.28542
G1 X62.378 Y135.248 E0.32620
G1 X61.350 Y134.459 E0.36697
G1 X60.561 Y133.431 E0.40775
G1 X60.468 Y133.206 E0.41543
G1 X60.065 Y132.234 E0.44852
G1 X59.896 Y130.950 E0.48930
G1 X60.065 Y129.665 E0.53007
G1 X60.561 Y128.469 E0.57085
G1 X61.350 Y127.441 E0.61162
G1 X62.378 Y126.652 E0.65240
G1 X63.575 Y126.156 E0.69317
G1 X64.859 Y125.987 E0.73395
G1 X65.902 Y126.124 E0.76705
G1 X66.144 Y126.156 E0.77472 F540.000
G1 X67.341 Y126.652 E0.81550
G1 X68.368 Y127.441 E0.85627
G1 X69.157 Y128.469 E0.89705
G1 X69.653 Y129.666 E0.93782
G1 X69.814 Y130.891 E0.97671
G1 X69.181 Y130.950 F7800.000
G1 X69.034 Y132.069 E1.01222 F378.000
G1 X68.602 Y133.111 E1.04773
G1 X67.915 Y134.006 E1.08323
G1 X67.788 Y134.104 E1.08828
G1 X67.020 Y134.693 E1.11874
G1 X65.978 Y135.125 E1.15425
G1 X64.859 Y135.272 E1.18976
G1 X63.741 Y135.125 E1.22526
G1 X62.698 Y134.693 E1.26077
G1 X61.803 Y134.006 E1.29628
G1 X61.116 Y133.111 E1.33179
G1 X60.685 Y132.069 E1.36729
G1 X60.537 Y130.950 E1.40280
G1 X60.685 Y129.831 E1.43831
G1 X61.116 Y128.789 E1.47382
G1 X61.803 Y127.894 E1.50933
G1 X62.698 Y127.207 E1.54483
G1 X63.741 Y126.775 E1.58034
G1 X64.700 Y126.649 E1.61080
G1 X64.859 Y126.628 E1.61585 F378.000
G1 X65.978 Y126.775 E1.65136
G1 X67.020 Y127.207 E1.68686
G1 X67.915 Y127.894 E1.72237
G1 X68.602 Y128.789 E1.75788
G1 X69.034 Y129.831 E1.79339
G1 X69.173 Y130.891 E1.82701
G10 ; retract
G92 E0
G1 X64.638 Y126.501 F7800.000
G1 X96.036 Y119.408 F7800.000
G11 ; unretract
G1 X95.820 Y118.887 E0.01777 F540.000
G1 X95.747 Y118.327 E0.03554
G1 X95.820 Y117.767 E0.05330
G1 X96.036 Y117.246 E0.07107
G1 X96.380 Y116.798 E0.08884
G1 X96.828 Y116.454 E0.10660
G1 X97.350 Y116.238 E0.12437
G1 X97.909 Y116.165 E0.14214
G1 X98.469 Y116.238 E0.15991
G1 X98.990 Y116.454 E0.17767 F540.000
G1 X99.438 Y116.798 E0.19544
G1 X99.782 Y117.246 E0.21321
G1 X99.998 Y117.767 E0.23097
G1 X100.072 Y118.327 E0.24874
G1 X99.998 Y118.887 E0.26651
G1 X99.782 Y119.408 E0.28428
G1 X99.438 Y119.856 E0.30204
G1 X98.990 Y120.200 E0.31981
G1 X98.469 Y120.416 E0.33758
G1 X97.909 Y120.490 E0.35535
G1 X97.350 Y120.416 E0.37311
G1 X96.828 Y120.200 E0.39088
G1 X96.380 Y119.856 E0.40865
G1 X96.073 Y119.456 E0.42453
G1 X96.592 Y119.088 F7800.000
G1 X96.440 Y118.721 E0.43703 F378.000
G1 X96.388 Y118.327 E0.44953
G1 X96.440 Y117.933 E0.46203
G1 X96.592 Y117.566 E0.47453
G1 X96.833 Y117.251 E0.48703
G1 X97.148 Y117.010 E0.49953
G1 X97.515 Y116.858 E0.51203
G1 X97.909 Y116.806 E0.52453 F378.000
G1 X98.303 Y116.858 E0.53703
G1 X98.670 Y117.010 E0.54953
G1 X98.985 Y117.251 E0.56203
G1 X99.227 Y117.566 E0.57453
G1 X99.379 Y117.933 E0.58703
G1 X99.431 Y118.327 E0.59953
G1 X99.379 Y118.721 E0.61203
G1 X99.227 Y119.088 E0.62453
G1 X98.985 Y119.403 E0.63703
G1 X98.670 Y119.645 E0.64953
G1 X98.303 Y119.797 E0.66203
G1 X97.909 Y119.849 E0.67453
G1 X97.515 Y119.797 E0.68703
G1 X97.148 Y119.645 E0.69953
G1 X96.833 Y119.403 E0.71203
G1 X96.628 Y119.135 E0.72264
G10 ; retract
G92 E0
G1 X97.515 Y116.460 F7800.000
G1 X99.209 Y164.665 F7800.000
G11 ; unretract
G1 X99.769 Y164.738 E0.01777 F540.000
G1 X100.290 Y164.954 E0.03553 F540.000
G1 X100.738 Y165.298 E0.05330
G1 X101.082 Y165.746 E0.07107
G1 X101.298 Y166.267 E0.08884
G1 X101.372 Y166.827 E0.10660
G1 X101.298 Y167.387 E0.12437
G1 X101.082 Y167.908 E0.14214
G1 X100.738 Y168.356 E0.15991
G1 X100.290 Y168.700 E0.17767
G1 X99.769 Y168.916 E0.19544
G1 X99.209 Y168.990 E0.21321
G1 X98.650 Y168.916 E0.23097
G1 X98.128 Y168.700 E0.24874
G1 X97.680 Y168.356 E0.26651
G1 X97.336 Y167.908 E0.28428
G1 X97.120 Y167.387 E0.30204
G1 X97.047 Y166.827 E0.31981
G1 X97.120 Y166.267 E0.33758
G1 X97.336 Y165.746 E0.35535
G1 X97.680 Y165.298 E0.37311
G1 X98.128 Y164.954 E0.39088
G1 X98.650 Y164.738 E0.40865
G1 X99.150 Y164.672 E0.42453
G1 X99.209 Y165.306 F7800.000
G1 X99.603 Y165.358 E0.43703 F378.000
G1 X99.970 Y165.510 E0.44953
G1 X100.285 Y165.751 E0.46203
G1 X100.527 Y166.066 E0.47453
G1 X100.679 Y166.433 E0.48703
G1 X100.731 Y166.827 E0.49953
G1 X100.679 Y167.221 E0.51203
G1 X100.527 Y167.588 E0.52453
G1 X100.285 Y167.903 E0.53703
G1 X99.970 Y168.145 E0.54953
G1 X99.603 Y168.297 E0.56203
G1 X99.209 Y168.349 E0.57453
G1 X98.815 Y168.297 E0.58703
G1 X98.448 Y168.145 E0.59953
G1 X98.133 Y167.903 E0.61203
G1 X97.892 Y167.588 E0.62453
G1 X97.740 Y167.221 E0.63703
G1 X97.688 Y166.827 E0.64953
G1 X97.740 Y166.433 E0.66203
G1 X97.892 Y166.066 E0.67453
G1 X98.133 Y165.751 E0.68703
G1 X98.448 Y165.510 E0.69953
G1 X98.815 Y165.358 E0.71203
G1 X99.150 Y165.314 E0.72264 F378.000
G1 X98.786 Y165.022 F7800.000
G1 X69.822 Y169.050 F7800.000
G1 X69.653 Y170.334 E0.76341 F540.000
G1 X69.157 Y171.531 E0.80419
G1 X68.368 Y172.559 E0.84496
