; generated by Slic3r 1.1.7 on 2014-08-25 at 21:04:24

; perimeters extrusion width = 0.40mm
; infill extrusion width = 0.42mm
; solid infill extrusion width = 0.42mm
; top infill extrusion width = 0.42mm

G21 ; set units to millimeters
M107
M104 S185 ; set temperature
G92 X0 Y0 Z0
G1 Z5 F5000 ; lift nozzle

M109 S185 ; wait for temperature to be reached
G90 ; use absolute coordinates
G92 E0
M82 ; use absolute distances for extrusion
G10 ; retract
G92 E0
G1 Z0.350 F3600.000
G1 X43.340 Y102.566 F3600.000
G11 ; unretract
G1 X81.440 Y87.293 E3.79649 F720.000
G1 X83.909 Y86.817 E4.02906
G1 X216.091 Y86.817 E16.25466
G1 X218.560 Y87.293 E16.48724
G1 X256.660 Y102.566 E20.28373 F720.000
G1 X258.610 Y103.775 E20.49602
G1 X260.032 Y105.577 E20.70832
G1 X260.826 Y108.725 E21.00857
G1 X260.826 Y191.275 E28.64370
G1 X260.429 Y193.536 E28.85599
G1 X259.286 Y195.526 E29.06829
G1 X256.660 Y197.434 E29.36854
G1 X218.560 Y212.707 E33.16503
G1 X216.091 Y213.183 E33.39760
G1 X83.909 Y213.183 E45.62320
G1 X81.440 Y212.707 E45.85578
G1 X43.340 Y197.434 E49.65227
G1 X41.390 Y196.225 E49.86456
G1 X39.968 Y194.423 E50.07686
G1 X39.174 Y191.275 E50.37711
G1 X39.174 Y108.725 E58.01224
G1 X39.571 Y106.464 E58.22453
G1 X40.714 Y104.474 E58.43683
G1 X43.292 Y102.601 E58.73153
G10 ; retract
G92 E0
G1 X235.517 Y173.992 F3600.000
G11 ; unretract
G1 X234.225 Y173.921 E0.11967 F540.000
G1 X232.995 Y173.518 E0.23935
G1 X231.912 Y172.811 E0.35902
G1 X231.049 Y171.847 E0.47870
G1 X230.464 Y170.692 E0.59838
G1 X230.199 Y169.426 E0.71805
G1 X230.270 Y168.134 E0.83773
G1 X230.673 Y166.904 E0.95740
G1 X231.380 Y165.821 E1.07708
G1 X232.344 Y164.958 E1.19675
G1 X233.499 Y164.373 E1.31643
G1 X234.765 Y164.108 E1.43610
G1 X234.928 Y164.117 E1.45117
G1 X236.057 Y164.179 E1.55578 F540.000
G1 X237.286 Y164.582 E1.67545
G1 X238.370 Y165.289 E1.79513
G1 X239.233 Y166.253 E1.91480
G1 X239.817 Y167.408 E2.03448
G1 X240.083 Y168.674 E2.15415
G1 X240.012 Y169.966 E2.27383
G1 X239.609 Y171.196 E2.39350
G1 X238.901 Y172.279 E2.51318
G1 X237.937 Y173.142 E2.63286
G1 X236.783 Y173.727 E2.75253
G1 X235.575 Y173.980 E2.86666
G1 X235.468 Y173.353 F3600.000
G1 X234.343 Y173.291 E2.97085 F378.000
G1 X233.273 Y172.940 E3.07505
G1 X232.330 Y172.324 E3.17924
G1 X231.578 Y171.485 E3.28344
G1 X231.069 Y170.480 E3.38763
G1 X230.838 Y169.377 E3.49183
G1 X230.900 Y168.252 E3.59603
G1 X231.251 Y167.182 E3.70022
G1 X231.867 Y166.239 E3.80442
G1 X232.706 Y165.487 E3.90861
G1 X233.711 Y164.978 E4.01281
G1 X233.868 Y164.945 E4.02762
G1 X234.814 Y164.747 E4.11701 F378.000
G1 X235.938 Y164.809 E4.22120
G1 X237.009 Y165.160 E4.32540
G1 X237.952 Y165.776 E4.42959
G1 X238.704 Y166.615 E4.53379
G1 X239.212 Y167.620 E4.63798
G1 X239.444 Y168.723 E4.74218
G1 X239.382 Y169.848 E4.84638
G1 X239.031 Y170.918 E4.95057
G1 X238.415 Y171.861 E5.05477
G1 X237.576 Y172.613 E5.15896
G1 X236.571 Y173.122 E5.26316
G1 X235.527 Y173.341 E5.36180
G10 ; retract
G92 E0
G1 X233.771 Y164.557 F3600.000
G1 X235.141 Y135.907 F3600.000
G11 ; unretract
G1 X233.858 Y135.738 E0.11967 F540.000
G1 X232.663 Y135.242 E0.23935
G1 X231.636 Y134.455 E0.35902
G1 X230.848 Y133.428 E0.47870
G1 X230.353 Y132.233 E0.59837
G1 X230.184 Y130.950 E0.71805
G1 X230.353 Y129.667 E0.83773
G1 X230.848 Y128.472 E0.95740
G1 X231.636 Y127.445 E1.07708
G1 X232.663 Y126.658 E1.19675
G1 X233.858 Y126.162 E1.31643
G1 X235.141 Y125.993 E1.43610
G1 X235.382 Y126.025 E1.45865
G1 X236.424 Y126.162 E1.55578 F540.000
G1 X237.619 Y126.658 E1.67545
G1 X238.646 Y127.445 E1.79513
G1 X239.433 Y128.472 E1.91480
G1 X239.928 Y129.667 E2.03448
G1 X240.097 Y130.950 E2.15415
G1 X239.928 Y132.233 E2.27383
G1 X239.527 Y133.203 E2.37095
G1 X239.433 Y133.428 E2.39350
G1 X238.646 Y134.455 E2.51318
G1 X237.619 Y135.242 E2.63285
G1 X236.424 Y135.738 E2.75253
G1 X235.200 Y135.899 E2.86666
G1 X235.141 Y135.265 F3600.000
G1 X234.024 Y135.118 E2.97085 F378.000
G1 X232.983 Y134.687 E3.07505
G1 X232.089 Y134.001 E3.17924
G1 X231.404 Y133.108 E3.28344
G1 X230.972 Y132.067 E3.38763
G1 X230.825 Y130.950 E3.49183
G1 X230.972 Y129.833 E3.59603
G1 X231.404 Y128.792 E3.70022
G1 X232.089 Y127.899 E3.80442
G1 X232.983 Y127.213 E3.90861
G1 X234.024 Y126.782 E4.01281
G1 X234.183 Y126.761 E4.02762
G1 X235.141 Y126.635 E4.11700 F378.000
G1 X236.258 Y126.782 E4.22120
G1 X237.299 Y127.213 E4.32540
G1 X238.192 Y127.899 E4.42959
G1 X238.878 Y128.792 E4.53379
G1 X239.309 Y129.833 E4.63798
G1 X239.456 Y130.950 E4.74218
G1 X239.309 Y132.067 E4.84637
G1 X238.939 Y132.960 E4.93576
G1 X238.878 Y133.108 E4.95057
G1 X238.192 Y134.001 E5.05477
G1 X237.299 Y134.687 E5.15896
G1 X236.258 Y135.118 E5.26316
G1 X235.200 Y135.258 E5.36180
G10 ; retract
G92 E0
G1 X234.116 Y126.366 F3600.000
G1 X181.412 Y119.143 F3600.000
G11 ; unretract
G1 X181.133 Y119.634 E0.05221 F540.000
G1 X180.736 Y120.035 E0.10443
G1 X180.249 Y120.320 E0.15664
G1 X179.704 Y120.469 E0.20886
G1 X179.140 Y120.473 E0.26107
G1 X178.593 Y120.330 E0.31328
G1 X178.103 Y120.051 E0.36550
G1 X177.701 Y119.654 E0.41771
G1 X177.416 Y119.166 E0.46993
G1 X177.267 Y118.622 E0.52214
G1 X177.264 Y118.058 E0.57435
G1 X177.406 Y117.511 E0.62657
G1 X177.686 Y117.021 E0.67878
G1 X178.083 Y116.619 E0.73099
G1 X178.570 Y116.334 E0.78321
G1 X179.114 Y116.185 E0.83543
G1 X179.679 Y116.182 E0.88764
G1 X180.225 Y116.324 E0.93985
G1 X180.716 Y116.604 E0.99207 F540.000
G1 X181.117 Y117.001 E1.04428
G1 X181.402 Y117.488 E1.09649
G1 X181.552 Y118.032 E1.14871
G1 X181.555 Y118.597 E1.20092
G1 X181.427 Y119.085 E1.24759
G1 X180.818 Y118.901 F3600.000
G1 X180.622 Y119.246 E1.28432 F378.000
G1 X180.342 Y119.529 E1.32106
G1 X180.000 Y119.729 E1.35779
G1 X179.617 Y119.834 E1.39453
G1 X179.220 Y119.837 E1.43126
G1 X178.835 Y119.736 E1.46799
G1 X178.490 Y119.540 E1.50473
G1 X178.208 Y119.260 E1.54147
G1 X178.007 Y118.918 E1.57820
G1 X177.902 Y118.535 E1.61493
G1 X177.900 Y118.137 E1.65167
G1 X178.000 Y117.753 E1.68840
G1 X178.197 Y117.408 E1.72514
G1 X178.476 Y117.126 E1.76187
G1 X178.819 Y116.925 E1.79861
G1 X179.202 Y116.820 E1.83534
G1 X179.599 Y116.818 E1.87208 F378.000
G1 X179.983 Y116.918 E1.90881
G1 X180.328 Y117.115 E1.94554
G1 X180.611 Y117.394 E1.98228
G1 X180.811 Y117.737 E2.01901
G1 X180.916 Y118.120 E2.05575
G1 X180.919 Y118.517 E2.09248
G1 X180.833 Y118.843 E2.12367
G10 ; retract
G92 E0
G1 X179.097 Y116.437 F3600.000
G1 X174.192 Y164.666 F3600.000
G11 ; unretract
G1 X174.749 Y164.761 E0.05222 F540.000
G1 X175.262 Y164.997 E0.10443 F540.000
G1 X175.696 Y165.358 E0.15665
G1 X176.022 Y165.819 E0.20886
G1 X176.218 Y166.348 E0.26107
G1 X176.270 Y166.910 E0.31329
G1 X176.175 Y167.467 E0.36550
G1 X175.939 Y167.980 E0.41772
G1 X175.578 Y168.414 E0.46993
G1 X175.118 Y168.740 E0.52214
G1 X174.588 Y168.936 E0.57436
G1 X174.026 Y168.988 E0.62657
G1 X173.470 Y168.893 E0.67879
G1 X172.957 Y168.657 E0.73100
G1 X172.522 Y168.296 E0.78321
G1 X172.196 Y167.836 E0.83543
G1 X172.000 Y167.306 E0.88764
G1 X171.948 Y166.744 E0.93986
G1 X172.043 Y166.188 E0.99207
G1 X172.279 Y165.675 E1.04429
G1 X172.640 Y165.240 E1.09650
G1 X173.101 Y164.914 E1.14871
G1 X173.630 Y164.718 E1.20093
G1 X174.133 Y164.672 E1.24759
G1 X174.168 Y165.307 F3600.000
G1 X174.559 Y165.374 E1.28433 F378.000
G1 X174.920 Y165.540 E1.32106
G1 X175.226 Y165.794 E1.35780
G1 X175.455 Y166.118 E1.39453
G1 X175.593 Y166.490 E1.43127
G1 X175.629 Y166.886 E1.46800
G1 X175.563 Y167.277 E1.50473
G1 X175.397 Y167.638 E1.54147
G1 X175.143 Y167.944 E1.57820
G1 X174.819 Y168.173 E1.61494
G1 X174.446 Y168.311 E1.65167
G1 X174.051 Y168.347 E1.68841
G1 X173.659 Y168.281 E1.72514
G1 X173.298 Y168.115 E1.76188
G1 X172.993 Y167.861 E1.79861
G1 X172.763 Y167.537 E1.83535
G1 X172.626 Y167.164 E1.87208
G1 X172.589 Y166.769 E1.90882
G1 X172.656 Y166.377 E1.94555
G1 X172.822 Y166.016 E1.98229
G1 X173.076 Y165.711 E2.01902
G1 X173.400 Y165.481 E2.05575
G1 X173.772 Y165.344 E2.09249
G1 X174.108 Y165.312 E2.12367 F378.000
G1 X173.751 Y165.007 F3600.000
G1 X151.826 Y152.467 F3600.000
G1 X151.464 Y152.900 E2.17589 F540.000
G1 X151.001 Y153.224 E2.22810
G1 X150.471 Y153.418 E2.28031
G1 X149.909 Y153.467 E2.33253
G1 X149.353 Y153.370 E2.38474
G1 X148.841 Y153.132 E2.43696
G1 X148.408 Y152.770 E2.48917
G1 X148.084 Y152.308 E2.54139
G1 X147.890 Y151.777 E2.59360
G1 X147.840 Y151.215 E2.64581
G1 X147.938 Y150.659 E2.69803
G1 X148.176 Y150.147 E2.75024
G1 X148.538 Y149.714 E2.80245
G1 X149.000 Y149.390 E2.85467
G1 X149.530 Y149.196 E2.90688
G1 X150.093 Y149.146 E2.95910
G1 X150.649 Y149.244 E3.01131
G1 X151.161 Y149.482 E3.06353 F540.000
G1 X151.594 Y149.844 E3.11574
G1 X151.918 Y150.306 E3.16795
G1 X152.112 Y150.837 E3.22017
G1 X152.161 Y151.399 E3.27238
G1 X152.064 Y151.955 E3.32460
G1 X151.851 Y152.412 E3.37126
G1 X151.285 Y152.123 F3600.000
G1 X151.030 Y152.427 E3.40799 F378.000
G1 X150.705 Y152.656 E3.44473
G1 X150.332 Y152.792 E3.48146
G1 X149.936 Y152.827 E3.51820
G1 X149.545 Y152.758 E3.55494
G1 X149.185 Y152.591 E3.59167
G1 X148.880 Y152.336 E3.62840
G1 X148.652 Y152.011 E3.66514
G1 X148.516 Y151.638 E3.70187
G1 X148.481 Y151.242 E3.73861
G1 X148.549 Y150.851 E3.77534
G1 X148.717 Y150.491 E3.81208
G1 X148.972 Y150.186 E3.84881
G1 X149.297 Y149.958 E3.88555
G1 X149.670 Y149.822 E3.92228
G1 X150.066 Y149.787 E3.95901 F378.000
G1 X150.457 Y149.855 E3.99575
G1 X150.817 Y150.023 E4.03249
G1 X151.121 Y150.278 E4.06922
G1 X151.350 Y150.603 E4.10595
G1 X151.486 Y150.976 E4.14269
G1 X151.521 Y151.372 E4.17942
G1 X151.452 Y151.763 E4.21616
G1 X151.310 Y152.069 E4.24734
G10 ; retract
G92 E0
G1 X149.550 Y149.443 F3600.000
G1 X150.112 Y125.587 F3600.000
G11 ; unretract
G1 X149.549 Y125.540 E0.05221 F540.000
G1 X149.018 Y125.349 E0.10443
G1 X148.554 Y125.027 E0.15664
G1 X148.190 Y124.596 E0.20886
G1 X147.949 Y124.085 E0.26107
G1 X147.849 Y123.530 E0.31328
G1 X147.896 Y122.967 E0.36550
G1 X148.087 Y122.436 E0.41771
G1 X148.409 Y121.972 E0.46993
G1 X148.840 Y121.608 E0.52214
G1 X149.351 Y121.367 E0.57436
G1 X149.907 Y121.267 E0.62657
G1 X150.469 Y121.314 E0.67878
G1 X151.000 Y121.505 E0.73100 F540.000
G1 X151.464 Y121.827 E0.78321
G1 X151.829 Y122.258 E0.83542
G1 X152.069 Y122.769 E0.88764
G1 X152.169 Y123.324 E0.93985
G1 X152.122 Y123.887 E0.99207
G1 X151.931 Y124.418 E1.04428
G1 X151.609 Y124.882 E1.09650
G1 X151.178 Y125.247 E1.14871
G1 X150.667 Y125.487 E1.20092
G1 X150.171 Y125.577 E1.24759
G1 X150.081 Y124.947 F3600.000
G1 X149.686 Y124.914 E1.28432 F378.000
G1 X149.312 Y124.779 E1.32106
G1 X148.986 Y124.553 E1.35779
G1 X148.729 Y124.250 E1.39453
G1 X148.560 Y123.890 E1.43126
G1 X148.490 Y123.499 E1.46800
G1 X148.523 Y123.104 E1.50473
G1 X148.657 Y122.730 E1.54147
G1 X148.884 Y122.404 E1.57820
G1 X149.187 Y122.147 E1.61494
G1 X149.546 Y121.978 E1.65167
G1 X149.937 Y121.907 E1.68840 F378.000
G1 X150.333 Y121.941 E1.72514
G1 X150.706 Y122.075 E1.76187
G1 X151.033 Y122.301 E1.79861
G1 X151.289 Y122.605 E1.83534
G1 X151.458 Y122.964 E1.87208
G1 X151.529 Y123.355 E1.90881
G1 X151.496 Y123.751 E1.94555
G1 X151.361 Y124.124 E1.98228
G1 X151.135 Y124.451 E2.01902
G1 X150.832 Y124.707 E2.05575
G1 X150.472 Y124.876 E2.09248
G1 X150.140 Y124.936 E2.12367
G10 ; retract
G92 E0
G1 X149.459 Y121.591 F3600.000
G1 X69.822 Y130.950 F3600.000
G11 ; unretract
G1 X69.653 Y132.234 E0.11983 F540.000
G1 X69.157 Y133.431 E0.23965
G1 X68.368 Y134.459 E0.35949
G1 X68.175 Y134.608 E0.38205
G1 X67.341 Y135.248 E0.47932
G1 X66.144 Y135.744 E0.59914
G1 X64.859 Y135.913 E0.71897
G1 X63.575 Y135.744 E0.83880
G1 X62.378 Y135.248 E0.95863
G1 X61.350 Y134.459 E1.07846
G1 X60.561 Y133.431 E1.19828
G1 X60.468 Y133.206 E1.22085
G1 X60.065 Y132.234 E1.31811
G1 X59.896 Y130.950 E1.43794
G1 X60.065 Y129.665 E1.55777
G1 X60.561 Y128.469 E1.67759
G1 X61.350 Y127.441 E1.79743
G1 X62.378 Y126.652 E1.91725
G1 X63.575 Y126.156 E2.03708
G1 X64.859 Y125.987 E2.15691
G1 X65.902 Y126.124 E2.25418
G1 X66.144 Y126.156 E2.27674 F540.000
G1 X67.341 Y126.652 E2.39657
G1 X68.368 Y127.441 E2.51640
G1 X69.157 Y128.469 E2.63622
G1 X69.653 Y129.666 E2.75606
G1 X69.814 Y130.891 E2.87033
G1 X69.181 Y130.950 F3600.000
G1 X69.034 Y132.069 E2.97468 F378.000
G1 X68.602 Y133.111 E3.07903
G1 X67.915 Y134.006 E3.18338
G1 X67.788 Y134.104 E3.19821
G1 X67.020 Y134.693 E3.28773
G1 X65.978 Y135.125 E3.39208
G1 X64.859 Y135.272 E3.49643
G1 X63.741 Y135.125 E3.60078
G1 X62.698 Y134.693 E3.70513
G1 X61.803 Y134.006 E3.80947
G1 X61.116 Y133.111 E3.91382
G1 X60.685 Y132.069 E4.01817
G1 X60.537 Y130.950 E4.12252
G1 X60.685 Y129.831 E4.22687
G1 X61.116 Y128.789 E4.33122
G1 X61.803 Y127.894 E4.43557
G1 X62.698 Y127.207 E4.53992
G1 X63.741 Y126.775 E4.64427
G1 X64.700 Y126.649 E4.73379
G1 X64.859 Y126.628 E4.74861 F378.000
G1 X65.978 Y126.775 E4.85296
G1 X67.020 Y127.207 E4.95731
G1 X67.915 Y127.894 E5.06166
G1 X68.602 Y128.789 E5.16601
G1 X69.034 Y129.831 E5.27036
G1 X69.173 Y130.891 E5.36916
G10 ; retract
G92 E0
G1 X64.638 Y126.501 F3600.000
G1 X96.036 Y119.408 F3600.000
G11 ; unretract
G1 X95.820 Y118.887 E0.05221 F540.000
G1 X95.747 Y118.327 E0.10443
G1 X95.820 Y117.767 E0.15664
G1 X96.036 Y117.246 E0.20886
G1 X96.380 Y116.798 E0.26107
G1 X96.828 Y116.454 E0.31328
G1 X97.350 Y116.238 E0.36550
G1 X97.909 Y116.165 E0.41771
G1 X98.469 Y116.238 E0.46993
G1 X98.990 Y116.454 E0.52214 F540.000
G1 X99.438 Y116.798 E0.57436
G1 X99.782 Y117.246 E0.62657
G1 X99.998 Y117.767 E0.67878
G1 X100.072 Y118.327 E0.73100
G1 X99.998 Y118.887 E0.78321
G1 X99.782 Y119.408 E0.83542
G1 X99.438 Y119.856 E0.88764
G1 X98.990 Y120.200 E0.93985
G1 X98.469 Y120.416 E0.99207
G1 X97.909 Y120.490 E1.04428
G1 X97.350 Y120.416 E1.09649
G1 X96.828 Y120.200 E1.14871
G1 X96.380 Y119.856 E1.20092
G1 X96.073 Y119.456 E1.24759
G1 X96.592 Y119.088 F3600.000
G1 X96.440 Y118.721 E1.28432 F378.000
G1 X96.388 Y118.327 E1.32106
G1 X96.440 Y117.933 E1.35779
G1 X96.592 Y117.566 E1.39453
G1 X96.833 Y117.251 E1.43126
G1 X97.148 Y117.010 E1.46800
G1 X97.515 Y116.858 E1.50473
G1 X97.909 Y116.806 E1.54146 F378.000
G1 X98.303 Y116.858 E1.57820
G1 X98.670 Y117.010 E1.61494
G1 X98.985 Y117.251 E1.65167
G1 X99.227 Y117.566 E1.68840
G1 X99.379 Y117.933 E1.72514
G1 X99.431 Y118.327 E1.76187
G1 X99.379 Y118.721 E1.79861
G1 X99.227 Y119.088 E1.83534
G1 X98.985 Y119.403 E1.87208
G1 X98.670 Y119.645 E1.90881
G1 X98.303 Y119.797 E1.94555
G1 X97.909 Y119.849 E1.98228
G1 X97.515 Y119.797 E2.01902
G1 X97.148 Y119.645 E2.05575
G1 X96.833 Y119.403 E2.09249
G1 X96.628 Y119.135 E2.12367
G10 ; retract
G92 E0
G1 X97.515 Y116.460 F3600.000
G1 X99.209 Y164.665 F3600.000
G11 ; unretract
G1 X99.769 Y164.738 E0.05222 F540.000
G1 X100.290 Y164.954 E0.10443 F540.000
G1 X100.738 Y165.298 E0.15664
G1 X101.082 Y165.746 E0.20886
G1 X101.298 Y166.267 E0.26107
G1 X101.372 Y166.827 E0.31329
G1 X101.298 Y167.387 E0.36550
G1 X101.082 Y167.908 E0.41771
G1 X100.738 Y168.356 E0.46993
G1 X100.290 Y168.700 E0.52214
G1 X99.769 Y168.916 E0.57435
G1 X99.209 Y168.990 E0.62657
G1 X98.650 Y168.916 E0.67878
G1 X98.128 Y168.700 E0.73100
G1 X97.680 Y168.356 E0.78321
G1 X97.336 Y167.908 E0.83542
G1 X97.120 Y167.387 E0.88764
G1 X97.047 Y166.827 E0.93985
G1 X97.120 Y166.267 E0.99207
G1 X97.336 Y165.746 E1.04428
G1 X97.680 Y165.298 E1.09650
G1 X98.128 Y164.954 E1.14871
G1 X98.650 Y164.738 E1.20093
G1 X99.150 Y164.672 E1.24759
G1 X99.209 Y165.306 F3600.000
G1 X99.603 Y165.358 E1.28433 F378.000
G1 X99.970 Y165.510 E1.32106
G1 X100.285 Y165.751 E1.35779
G1 X100.527 Y166.066 E1.39453
G1 X100.679 Y166.433 E1.43126
G1 X100.731 Y166.827 E1.46800
G1 X100.679 Y167.221 E1.50473
G1 X100.527 Y167.588 E1.54147
G1 X100.285 Y167.903 E1.57820
G1 X99.970 Y168.145 E1.61494
G1 X99.603 Y168.297 E1.65167
G1 X99.209 Y168.349 E1.68841
G1 X98.815 Y168.297 E1.72514
G1 X98.448 Y168.145 E1.76188
G1 X98.133 Y167.903 E1.79861
G1 X97.892 Y167.588 E1.83534
G1 X97.740 Y167.221 E1.87208
G1 X97.688 Y166.827 E1.90881
G1 X97.740 Y166.433 E1.94555
G1 X97.892 Y166.066 E1.98228
G1 X98.133 Y165.751 E2.01902
G1 X98.448 Y165.510 E2.05575
G1 X98.815 Y165.358 E2.09249
G1 X99.150 Y165.314 E2.12367 F378.000
G1 X98.786 Y165.022 F3600.000
G1 X69.822 Y169.050 F3600.000
G1 X69.653 Y170.334 E2.24350 F540.000
G1 X69.157 Y171.531 E2.36333
