; generated by Slic3r 1.1.7 on 2014-08-23 at 00:11:20

; perimeters extrusion width = 0.40mm
; infill extrusion width = 0.42mm
; solid infill extrusion width = 0.42mm
; top infill extrusion width = 0.42mm

G21 ; set units to millimeters
M107
M104 S185 ; set temperature
G28 ; home all axes
G1 Z5 F5000 ; lift nozzle

M109 S185 ; wait for temperature to be reached
G90 ; use absolute coordinates
G92 E0
M82 ; use absolute distances for extrusion
G1 F1800.000 E-1.00000
G92 E0
G1 Z0.350 F3600.000
G1 X86.917 Y117.064 F3600.000
G1 E1.00000 F1800.000
G1 X89.070 Y116.268 E1.21230 F720.000
G1 X90.259 Y116.161 E1.32272
G1 X209.741 Y116.161 E12.37369
G1 X212.002 Y116.558 E12.58598
G1 X213.992 Y117.701 E12.79828 F720.000
G1 X215.473 Y119.455 E13.01058
G1 X216.269 Y121.608 E13.22287
G1 X216.376 Y122.797 E13.33330
G1 X216.376 Y177.203 E18.36544
G1 X215.979 Y179.464 E18.57773
G1 X214.836 Y181.454 E18.79003
G1 X213.083 Y182.936 E19.00232
G1 X210.930 Y183.732 E19.21462
G1 X209.741 Y183.839 E19.32505
G1 X90.259 Y183.839 E30.37601
G1 X87.998 Y183.442 E30.58831
G1 X86.008 Y182.299 E30.80061
G1 X84.527 Y180.545 E31.01290
G1 X83.731 Y178.392 E31.22520
G1 X83.624 Y177.203 E31.33562
G1 X83.624 Y122.797 E36.36776
G1 X84.021 Y120.536 E36.58006
G1 X85.164 Y118.546 E36.79235
G1 X86.871 Y117.103 E36.99910
G1 F1800.000 E35.99910
G92 E0
G1 X194.636 Y169.633 F3600.000
G1 E1.00000 F1800.000
G1 X172.343 Y169.633 E3.06185 F540.000
G1 X172.343 Y153.690 E4.53639
G1 X194.636 Y153.690 E6.59824
G1 X194.636 Y169.573 E8.06722
G1 X194.000 Y168.997 F3600.000
G1 X172.979 Y168.997 E10.01150 F540.000
G1 X172.979 Y154.326 E11.36845
G1 X194.000 Y154.326 E13.31273
G1 X194.000 Y168.937 E14.66414
G1 X193.365 Y168.362 F3600.000
G1 X173.615 Y168.362 E16.49083 F378.000
G1 X173.615 Y154.962 E17.73021
G1 X193.365 Y154.962 E19.55691
G1 X193.365 Y168.302 E20.79073
G1 X193.365 Y168.762 F3600.000
G1 X196.303 Y138.159 F3600.000
G1 X196.320 Y147.550 E21.65936 F540.000
G1 X170.662 Y147.595 E24.03249
G1 X170.645 Y138.213 E24.90029
G1 X169.577 Y138.658 E25.00730
G1 X168.707 Y138.774 E25.08851
G1 X167.837 Y138.661 E25.16967
G1 X167.025 Y138.326 E25.25087
G1 X166.328 Y137.793 E25.33203
G1 X165.792 Y137.097 E25.41325
G1 X165.455 Y136.287 E25.49441
G1 X165.339 Y135.417 E25.57560
G1 X165.452 Y134.547 E25.65678
G1 X165.786 Y133.735 E25.73798
G1 X166.319 Y133.038 E25.81915
G1 X167.015 Y132.502 E25.90034
G1 X167.825 Y132.165 E25.98155
G1 X168.695 Y132.049 E26.06271
G1 X169.566 Y132.162 E26.14390
G1 X170.377 Y132.496 E26.22507
G1 X170.719 Y132.758 E26.26489
G1 X196.226 Y132.713 E28.62407
G1 X196.672 Y132.399 E28.67452
G1 X197.496 Y132.097 E28.75568
G1 X198.370 Y132.019 E28.83685
G1 X199.235 Y132.169 E28.91804
G1 X200.032 Y132.538 E28.99925
G1 X200.705 Y133.101 E29.08043
G1 X201.210 Y133.819 E29.16160
G1 X201.512 Y134.643 E29.24279
G1 X201.591 Y135.517 E29.32399
G1 X201.440 Y136.382 E29.40517
G1 X201.071 Y137.179 E29.48636
G1 X200.508 Y137.852 E29.56753
G1 X200.313 Y137.989 E29.58957
G1 X199.790 Y138.357 E29.64875
G1 X198.966 Y138.659 E29.72990
G1 X198.092 Y138.738 E29.81108
G1 X197.227 Y138.587 E29.89227
G1 X196.358 Y138.184 E29.98093
G1 X195.666 Y137.038 F3600.000
G1 X195.683 Y146.916 E30.89452 F540.000
G1 X171.296 Y146.959 E33.15007
G1 X171.279 Y137.050 E34.06654
G1 X170.934 Y136.933 E34.10024
G1 X170.629 Y137.332 E34.14666
G1 X170.066 Y137.766 E34.21236
G1 X169.410 Y138.039 E34.27807
G1 X168.706 Y138.133 E34.34379
G1 X168.001 Y138.041 E34.40948
G1 X167.345 Y137.770 E34.47520
G1 X166.780 Y137.339 E34.54089
G1 X166.347 Y136.776 E34.60661
G1 X166.074 Y136.120 E34.67231
G1 X165.980 Y135.416 E34.73801
G1 X166.071 Y134.712 E34.80372
G1 X166.342 Y134.055 E34.86943
G1 X166.773 Y133.490 E34.93513
G1 X167.336 Y133.057 E35.00084
G1 X167.992 Y132.784 E35.06656
G1 X168.696 Y132.690 E35.13225
G1 X169.401 Y132.781 E35.19796
G1 X170.058 Y133.052 E35.26366
G1 X170.622 Y133.484 E35.32937
G1 X170.928 Y133.881 E35.37579
G1 X171.273 Y133.763 E35.40949
G1 X171.272 Y133.392 E35.44381
G1 X195.659 Y133.349 E37.69937
G1 X195.661 Y134.247 E37.78243
G1 X196.388 Y133.376 E37.88742
G1 X196.970 Y132.967 E37.95316
G1 X197.636 Y132.723 E38.01885
G1 X198.344 Y132.659 E38.08455
G1 X199.044 Y132.781 E38.15026
G1 X199.688 Y133.080 E38.21598
G1 X200.234 Y133.535 E38.28168
G1 X200.642 Y134.116 E38.34738
G1 X200.887 Y134.783 E38.41309
G1 X200.950 Y135.491 E38.47880
G1 X200.828 Y136.191 E38.54450
G1 X200.530 Y136.835 E38.61021
G1 X200.074 Y137.380 E38.67591
G1 X199.493 Y137.789 E38.74164
G1 X198.826 Y138.034 E38.80732
G1 X198.119 Y138.097 E38.87303
G1 X197.419 Y137.975 E38.93873
G1 X196.774 Y137.676 E39.00446
G1 X196.229 Y137.221 E39.07016
G1 X196.021 Y136.925 E39.10359
G1 X195.723 Y137.020 E39.13252
G1 F1800.000 E38.13252
G92 E0
G1 X170.781 Y135.408 F3600.000
G1 E1.00000 F1800.000
G1 X170.711 Y135.946 E1.05023 F378.000
G1 X170.504 Y136.448 E1.10045
G1 X170.175 Y136.880 E1.15068
G1 X169.744 Y137.211 E1.20090
G1 X169.243 Y137.420 E1.25113
G1 X168.705 Y137.491 E1.30137
G1 X168.166 Y137.422 E1.35159
G1 X167.730 Y137.242 E1.39525
G1 X167.664 Y137.215 E1.40182
G1 X167.233 Y136.885 E1.45204
G1 X166.901 Y136.455 E1.50227
G1 X166.693 Y135.953 E1.55249
G1 X166.630 Y135.485 E1.59616
G1 X166.621 Y135.415 E1.60272
G1 X166.691 Y134.876 E1.65295
G1 X166.898 Y134.374 E1.70318
G1 X167.228 Y133.943 E1.75340
G1 X167.658 Y133.612 E1.80363
G1 X168.159 Y133.403 E1.85386
G1 X168.697 Y133.331 E1.90408
G1 X168.768 Y133.340 E1.91064
G1 X169.236 Y133.401 E1.95431 F378.000
G1 X169.738 Y133.608 E2.00453
G1 X170.169 Y133.938 E2.05476
G1 X170.501 Y134.368 E2.10499
G1 X170.710 Y134.869 E2.15522
G1 X170.773 Y135.348 E2.19989
G1 F1800.000 E1.19989
G92 E0
G1 X169.149 Y133.462 F3600.000
G1 X196.153 Y135.292 F3600.000
G1 E1.00000 F1800.000
G1 X196.246 Y134.757 E1.05023 F378.000
G1 X196.474 Y134.264 E1.10046
G1 X196.822 Y133.848 E1.15067
G1 X197.267 Y133.535 E1.20091
G1 X197.777 Y133.348 E1.25113
G1 X198.317 Y133.300 E1.30136
G1 X198.387 Y133.312 E1.30792
G1 X198.852 Y133.393 E1.35159 F378.000
G1 X199.345 Y133.621 E1.40182
G1 X199.762 Y133.969 E1.45204
G1 X200.074 Y134.414 E1.50227
G1 X200.261 Y134.923 E1.55250
G1 X200.310 Y135.464 E1.60272
G1 X200.217 Y135.999 E1.65295
G1 X199.988 Y136.492 E1.70318
G1 X199.640 Y136.909 E1.75340
G1 X199.196 Y137.221 E1.80364
G1 X198.686 Y137.408 E1.85386
G1 X198.145 Y137.457 E1.90408
G1 X197.610 Y137.363 E1.95431
G1 X197.117 Y137.135 E2.00454
G1 X196.701 Y136.787 E2.05477
G1 X196.388 Y136.343 E2.10499
G1 X196.201 Y135.833 E2.15522
G1 X196.158 Y135.352 E2.19990
G1 F1800.000 E1.19990
G92 E0
G1 X198.643 Y133.619 F3600.000
G1 X195.025 Y133.986 F3600.000
G1 E1.00000 F1800.000
G1 X195.046 Y146.281 E2.13719 F378.000
G1 X171.931 Y146.322 E4.27516
G1 X171.909 Y134.027 E5.41234
G1 X194.965 Y133.986 E7.54477
G1 X195.425 Y133.985 F3600.000
G1 F1800.000 E6.54477
G92 E0
G1 X150.069 Y138.232 F3600.000
G1 E1.00000 F1800.000
G1 X150.059 Y147.608 E1.86724 F540.000
G1 X103.727 Y147.608 E6.15253
G1 X103.726 Y138.227 E7.02015
G1 X102.661 Y138.668 E7.12670
G1 X101.791 Y138.783 E7.20791
G1 X100.921 Y138.668 E7.28906
G1 X100.109 Y138.332 E7.37029
G1 X99.413 Y137.798 E7.45145
G1 X98.879 Y137.102 E7.53261
G1 X98.543 Y136.290 E7.61384
G1 X98.428 Y135.421 E7.69500
G1 X98.543 Y134.550 E7.77620
G1 X98.879 Y133.739 E7.85736
G1 X99.413 Y133.043 E7.93857
G1 X99.602 Y132.898 E7.96059
G1 X100.110 Y132.508 E8.01977
G1 X100.920 Y132.173 E8.10092
G1 X101.791 Y132.058 E8.18214
G1 X102.661 Y132.172 E8.26329
G1 X103.472 Y132.509 E8.34453
G1 X103.813 Y132.770 E8.38430
G1 X149.971 Y132.770 E12.65348
G1 X150.313 Y132.508 E12.69331
G1 X151.123 Y132.173 E12.77446
G1 X151.994 Y132.058 E12.85568
G1 X152.864 Y132.172 E12.93682
G1 X153.675 Y132.509 E13.01804
G1 X154.372 Y133.043 E13.09921
G1 X154.906 Y133.739 E13.18039
G1 X155.242 Y134.550 E13.26159
G1 X155.356 Y135.421 E13.34279
G1 X155.242 Y136.291 E13.42395
G1 X154.906 Y137.102 E13.50515
G1 X154.372 Y137.798 E13.58632
G1 X153.675 Y138.332 E13.66754
G1 X152.864 Y138.668 E13.74869
G1 X151.994 Y138.783 E13.82990
G1 X151.124 Y138.668 E13.91105
G1 X150.125 Y138.254 E14.01108
G1 X149.432 Y137.082 F3600.000
G1 X149.424 Y146.972 E14.92584 F540.000
G1 X104.362 Y146.972 E19.09360
G1 X104.361 Y137.069 E20.00954
G1 X104.016 Y136.952 E20.04324
G1 X103.715 Y137.345 E20.08898
G1 X103.151 Y137.777 E20.15470
G1 X102.495 Y138.049 E20.22039
G1 X101.791 Y138.142 E20.28611
G1 X101.087 Y138.049 E20.35179
G1 X100.430 Y137.777 E20.41753
G1 X99.867 Y137.345 E20.48322
G1 X99.434 Y136.781 E20.54891
G1 X99.162 Y136.125 E20.61464
G1 X99.069 Y135.420 E20.68033
G1 X99.142 Y134.869 E20.73175
G1 X99.162 Y134.716 E20.74605
G1 X99.434 Y134.060 E20.81174
G1 X99.867 Y133.496 E20.87746
G1 X99.989 Y133.402 E20.89175
G1 X100.430 Y133.064 E20.94318
G1 X101.086 Y132.792 E21.00886
G1 X101.791 Y132.699 E21.07459
G1 X102.495 Y132.792 E21.14027
G1 X103.152 Y133.064 E21.20601
G1 X103.715 Y133.496 E21.27169
G1 X104.016 Y133.888 E21.31744
G1 X104.361 Y133.771 E21.35114
G1 X104.361 Y133.406 E21.38493
G1 X149.420 Y133.406 E25.55249
G1 X149.422 Y133.775 E25.58664
G1 X149.766 Y133.892 E25.62028
G1 X150.070 Y133.496 E25.66639
G1 X150.633 Y133.064 E25.73211
G1 X151.289 Y132.792 E25.79779
G1 X151.994 Y132.699 E25.86352
G1 X152.698 Y132.792 E25.92920
G1 X153.355 Y133.064 E25.99493
G1 X153.918 Y133.496 E26.06063
G1 X154.351 Y134.060 E26.12633
G1 X154.623 Y134.716 E26.19204
G1 X154.715 Y135.420 E26.25776
G1 X154.623 Y136.125 E26.32345
G1 X154.351 Y136.781 E26.38916
G1 X153.918 Y137.345 E26.45486
G1 X153.354 Y137.777 E26.52058
G1 X152.698 Y138.049 E26.58627
G1 X151.994 Y138.142 E26.65199
G1 X151.290 Y138.049 E26.71768
G1 X150.633 Y137.777 E26.78340
G1 X150.070 Y137.345 E26.84910
G1 X149.778 Y136.964 E26.89345
G1 X149.489 Y137.063 E26.92166
G1 F1800.000 E25.92166
G92 E0
G1 X103.871 Y135.420 F3600.000
G1 E1.00000 F1800.000
G1 X103.800 Y135.959 E1.05023 F378.000
G1 X103.592 Y136.460 E1.10045
G1 X103.262 Y136.891 E1.15068
G1 X102.831 Y137.222 E1.20091
G1 X102.329 Y137.430 E1.25113
G1 X102.259 Y137.439 E1.25770
G1 X101.791 Y137.501 E1.30137
G1 X101.252 Y137.430 E1.35159
G1 X100.751 Y137.222 E1.40182
G1 X100.320 Y136.891 E1.45205
G1 X99.989 Y136.461 E1.50227
G1 X99.781 Y135.959 E1.55250
G1 X99.711 Y135.420 E1.60272
G1 X99.772 Y134.952 E1.64639
G1 X99.781 Y134.882 E1.65295
G1 X99.989 Y134.380 E1.70318
G1 X100.320 Y133.949 E1.75341
G1 X100.751 Y133.619 E1.80364
G1 X101.252 Y133.411 E1.85386
G1 X101.791 Y133.340 E1.90409
G1 X101.861 Y133.349 E1.91065
G1 X102.329 Y133.411 E1.95431 F378.000
G1 X102.831 Y133.619 E2.00455
G1 X103.262 Y133.949 E2.05477
G1 X103.592 Y134.380 E2.10499
G1 X103.800 Y134.882 E2.15523
G1 X103.863 Y135.361 E2.19990
G1 F1800.000 E1.19990
G92 E0
G1 X102.242 Y133.472 F3600.000
G1 X149.914 Y135.420 F3600.000
G1 E1.00000 F1800.000
G1 X149.985 Y134.882 E1.05023 F378.000
G1 X150.165 Y134.446 E1.09390
G1 X150.192 Y134.380 E1.10046
G1 X150.523 Y133.949 E1.15068
G1 X150.954 Y133.619 E1.20091
G1 X151.455 Y133.411 E1.25113
G1 X151.994 Y133.340 E1.30137
G1 X152.064 Y133.349 E1.30793
G1 X152.532 Y133.411 E1.35159 F378.000
G1 X153.034 Y133.619 E1.40182
G1 X153.465 Y133.949 E1.45204
G1 X153.795 Y134.380 E1.50227
G1 X154.003 Y134.882 E1.55250
G1 X154.074 Y135.420 E1.60273
G1 X154.003 Y135.959 E1.65295
G1 X153.795 Y136.461 E1.70318
G1 X153.465 Y136.891 E1.75340
G1 X153.034 Y137.222 E1.80364
G1 X152.532 Y137.430 E1.85386
G1 X151.994 Y137.501 E1.90409
G1 X151.456 Y137.430 E1.95431
G1 X150.954 Y137.222 E2.00454
G1 X150.523 Y136.891 E2.05477
G1 X150.192 Y136.461 E2.10499
G1 X149.985 Y135.959 E2.15522
G1 X149.922 Y135.480 E2.19990
G1 F1800.000 E1.19990
G92 E0
G1 X152.333 Y133.646 F3600.000
G1 X148.787 Y134.042 F3600.000
G1 E1.00000 F1800.000
G1 X148.788 Y146.337 E2.13719 F378.000
G1 X104.997 Y146.337 E6.18743
G1 X104.997 Y134.042 E7.32462
G1 X148.727 Y134.042 E11.36924
G1 X149.187 Y134.042 F3600.000
G1 X148.438 Y155.147 F3600.000
G1 X148.740 Y155.186 E11.39744 F540.000
G1 X150.505 Y155.419 E11.56205 F540.000
G1 X152.431 Y156.216 E11.75485
G1 X154.084 Y157.485 E11.94765
G1 X155.353 Y159.139 E12.14045
G1 X156.151 Y161.065 E12.33326
G1 X156.423 Y163.132 E12.52606
G1 X156.151 Y165.199 E12.71887
G1 X155.353 Y167.124 E12.91167
G1 X154.084 Y168.778 E13.10447
G1 X152.431 Y170.047 E13.29727
G1 X150.505 Y170.845 E13.49007
G1 X148.438 Y171.117 E13.68288
G1 X146.371 Y170.845 E13.87568
G1 X144.445 Y170.047 E14.06849
G1 X142.791 Y168.778 E14.26129
G1 X141.523 Y167.124 E14.45409
G1 X140.725 Y165.199 E14.64690
G1 X140.453 Y163.132 E14.83970
G1 X140.725 Y161.065 E15.03251
G1 X141.523 Y159.139 E15.22531
G1 X142.791 Y157.485 E15.41811
G1 X144.445 Y156.216 E15.61091
G1 X146.371 Y155.419 E15.80371
G1 X148.378 Y155.154 E15.99097
G1 X148.438 Y155.788 F3600.000
G1 X150.339 Y156.038 E16.16829 F540.000
G1 X152.110 Y156.772 E16.34562
G1 X153.631 Y157.939 E16.52294
G1 X154.798 Y159.460 E16.70026
G1 X155.532 Y161.231 E16.87759
G1 X155.782 Y163.132 E17.05491
G1 X155.532 Y165.033 E17.23224
G1 X154.798 Y166.804 E17.40956
G1 X153.631 Y168.325 E17.58688
G1 X152.110 Y169.492 E17.76421
G1 X150.339 Y170.226 E17.94153
G1 X150.119 Y170.255 E17.96198
G1 X148.438 Y170.476 E18.11886
G1 X146.537 Y170.226 E18.29618
G1 X144.766 Y169.492 E18.47350
G1 X143.245 Y168.325 E18.65082
G1 X142.078 Y166.804 E18.82815
G1 X141.344 Y165.033 E19.00547
G1 X141.094 Y163.132 E19.18279
G1 X141.315 Y161.450 E19.33967
G1 X141.344 Y161.231 E19.36012
G1 X142.078 Y159.460 E19.53744
G1 X143.245 Y157.939 E19.71477
G1 X144.766 Y156.772 E19.89209
G1 X146.537 Y156.038 E20.06941
G1 X146.756 Y156.009 E20.08987
G1 X148.378 Y155.796 E20.24119 F540.000
G1 X148.438 Y156.429 F3600.000
G1 X148.574 Y156.447 E20.25390 F378.000
G1 X150.173 Y156.657 E20.40304 F378.000
G1 X151.789 Y157.327 E20.56488
G1 X153.178 Y158.392 E20.72672
G1 X154.243 Y159.780 E20.88857
G1 X154.913 Y161.397 E21.05041
G1 X155.141 Y163.132 E21.21226
G1 X154.913 Y164.867 E21.37410
G1 X154.243 Y166.483 E21.53595
G1 X153.178 Y167.872 E21.69779
G1 X151.789 Y168.937 E21.85963
G1 X150.173 Y169.606 E22.02148
G1 X148.438 Y169.835 E22.18332
G1 X146.703 Y169.606 E22.34517
G1 X145.086 Y168.937 E22.50701
G1 X143.698 Y167.872 E22.66885
G1 X142.633 Y166.483 E22.83070
G1 X141.963 Y164.867 E22.99254
G1 X141.735 Y163.132 E23.15439
G1 X141.963 Y161.397 E23.31623
G1 X142.633 Y159.780 E23.47808
G1 X143.698 Y158.392 E23.63992
G1 X145.086 Y157.327 E23.80176
G1 X146.703 Y156.657 E23.96361
G1 X148.378 Y156.437 E24.11990
G1 X148.791 Y156.111 F3600.000
G1 X134.606 Y161.065 F3600.000
G1 X134.878 Y163.132 E24.31271 F540.000
G1 X134.605 Y165.199 E24.50551
G1 X133.924 Y166.843 E24.67012
G1 X133.808 Y167.124 E24.69831
G1 X132.539 Y168.778 E24.89112
G1 X130.885 Y170.047 E25.08392
G1 X128.959 Y170.845 E25.27672
G1 X126.892 Y171.117 E25.46953
G1 X124.826 Y170.845 E25.66233
G1 X122.900 Y170.047 E25.85513
G1 X121.246 Y168.778 E26.04793
G1 X119.977 Y167.124 E26.24074
G1 X119.179 Y165.199 E26.43354
G1 X118.907 Y163.132 E26.62634
G1 X119.179 Y161.065 E26.81915
G1 X119.977 Y159.139 E27.01195
G1 X121.246 Y157.485 E27.20475
G1 X122.900 Y156.216 E27.39756
G1 X124.826 Y155.419 E27.59036
G1 X126.892 Y155.147 E27.78317
G1 X127.195 Y155.186 E27.81136
G1 X128.959 Y155.419 E27.97597 F540.000
G1 X130.885 Y156.216 E28.16877
G1 X132.539 Y157.485 E28.36157
G1 X133.808 Y159.139 E28.55438
G1 X134.583 Y161.010 E28.74163
G1 X133.986 Y161.231 F3600.000
G1 X134.236 Y163.132 E28.91895 F540.000
G1 X133.986 Y165.033 E29.09628
G1 X133.253 Y166.804 E29.27360
G1 X132.085 Y168.325 E29.45093
G1 X131.910 Y168.460 E29.47138
G1 X130.564 Y169.492 E29.62825
G1 X128.793 Y170.226 E29.80557
G1 X126.892 Y170.476 E29.98290
G1 X124.992 Y170.226 E30.16022
G1 X123.220 Y169.492 E30.33754
G1 X121.699 Y168.325 E30.51487
G1 X120.532 Y166.804 E30.69219
G1 X119.798 Y165.033 E30.86951
G1 X119.548 Y163.132 E31.04684
G1 X119.798 Y161.231 E31.22416
G1 X120.532 Y159.460 E31.40149
G1 X121.699 Y157.939 E31.57881
G1 X123.220 Y156.772 E31.75613
G1 X124.992 Y156.038 E31.93346
G1 X125.211 Y156.009 E31.95391
G1 X126.892 Y155.788 E32.11078 F540.000
G1 X128.793 Y156.038 E32.28810
G1 X130.564 Y156.772 E32.46543
G1 X132.085 Y157.939 E32.64275
G1 X133.253 Y159.460 E32.82008
